%
(Header)
(Generated bYgcodetools from Inkscape.)
(Using default header. To add your own header create file "header" in the output dir.)
(Header end.)
G21 (All units in mm)

(Start cutting path id: path5776)
(Change tool to Cylindrical cutter)

G00 Z5.0000
G00 X222.3483 Y89.3490
M3
G01 Z-2.0000 F 100.0000(Penetrate)
G01 X222.3483 Y93.3479 Z-2.0000 F 400.0000
G01 X226.3802 Y93.3479 Z-2.0000
G01 X244.9536 Y138.6908 Z-2.0000
G01 X252.8523 Y138.6908 Z-2.0000
G01 X271.4587 Y93.3479 Z-2.0000
G01 X276.1516 Y93.3479 Z-2.0000
G01 X276.1516 Y89.3490 Z-2.0000
G01 X253.0506 Y89.3490 Z-2.0000
G01 X253.0506 Y93.3479 Z-2.0000
G01 X257.8757 Y93.3479 Z-2.0000
G01 X253.8107 Y103.4278 Z-2.0000
G01 X235.2703 Y103.4278 Z-2.0000
G01 X231.1393 Y93.3479 Z-2.0000
G01 X237.0219 Y93.3479 Z-2.0000
G01 X237.0219 Y89.3490 Z-2.0000
G01 X222.3483 Y89.3490 Z-2.0000
G01 X222.3483 Y89.3490 Z-2.0000
G00 Z5.0000

(End cutting path id: path5776)


(Start cutting path id: path5776)
(Change tool to Cylindrical cutter)

G00 Z5.0000
G00 X222.3483 Y89.3490

G01 Z-4.0000 F 100.0000(Penetrate)
G01 X222.3483 Y93.3479 Z-4.0000 F 400.0000
G01 X226.3802 Y93.3479 Z-4.0000
G01 X244.9536 Y138.6908 Z-4.0000
G01 X252.8523 Y138.6908 Z-4.0000
G01 X271.4587 Y93.3479 Z-4.0000
G01 X276.1516 Y93.3479 Z-4.0000
G01 X276.1516 Y89.3490 Z-4.0000
G01 X253.0506 Y89.3490 Z-4.0000
G01 X253.0506 Y93.3479 Z-4.0000
G01 X257.8757 Y93.3479 Z-4.0000
G01 X253.8107 Y103.4278 Z-4.0000
G01 X235.2703 Y103.4278 Z-4.0000
G01 X231.1393 Y93.3479 Z-4.0000
G01 X237.0219 Y93.3479 Z-4.0000
G01 X237.0219 Y89.3490 Z-4.0000
G01 X222.3483 Y89.3490 Z-4.0000
G01 X222.3483 Y89.3490 Z-4.0000
G00 Z5.0000

(End cutting path id: path5776)


(Start cutting path id: path5776)
(Change tool to Cylindrical cutter)

G00 Z5.0000
G00 X222.3483 Y89.3490

G01 Z-6.0000 F 100.0000(Penetrate)
G01 X222.3483 Y93.3479 Z-6.0000 F 400.0000
G01 X226.3802 Y93.3479 Z-6.0000
G01 X244.9536 Y138.6908 Z-6.0000
G01 X252.8523 Y138.6908 Z-6.0000
G01 X271.4587 Y93.3479 Z-6.0000
G01 X276.1516 Y93.3479 Z-6.0000
G01 X276.1516 Y89.3490 Z-6.0000
G01 X253.0506 Y89.3490 Z-6.0000
G01 X253.0506 Y93.3479 Z-6.0000
G01 X257.8757 Y93.3479 Z-6.0000
G01 X253.8107 Y103.4278 Z-6.0000
G01 X235.2703 Y103.4278 Z-6.0000
G01 X231.1393 Y93.3479 Z-6.0000
G01 X237.0219 Y93.3479 Z-6.0000
G01 X237.0219 Y89.3490 Z-6.0000
G01 X222.3483 Y89.3490 Z-6.0000
G01 X222.3483 Y89.3490 Z-6.0000
G00 Z5.0000

(End cutting path id: path5776)


(Start cutting path id: path5776)
(Change tool to Cylindrical cutter)

G00 Z5.0000
G00 X222.3483 Y89.3490

G01 Z-8.0000 F 100.0000(Penetrate)
G01 X222.3483 Y93.3479 Z-8.0000 F 400.0000
G01 X226.3802 Y93.3479 Z-8.0000
G01 X244.9536 Y138.6908 Z-8.0000
G01 X252.8523 Y138.6908 Z-8.0000
G01 X271.4587 Y93.3479 Z-8.0000
G01 X276.1516 Y93.3479 Z-8.0000
G01 X276.1516 Y89.3490 Z-8.0000
G01 X253.0506 Y89.3490 Z-8.0000
G01 X253.0506 Y93.3479 Z-8.0000
G01 X257.8757 Y93.3479 Z-8.0000
G01 X253.8107 Y103.4278 Z-8.0000
G01 X235.2703 Y103.4278 Z-8.0000
G01 X231.1393 Y93.3479 Z-8.0000
G01 X237.0219 Y93.3479 Z-8.0000
G01 X237.0219 Y89.3490 Z-8.0000
G01 X222.3483 Y89.3490 Z-8.0000
G01 X222.3483 Y89.3490 Z-8.0000
G00 Z5.0000

(End cutting path id: path5776)


(Start cutting path id: path5776)
(Change tool to Cylindrical cutter)

G00 Z5.0000
G00 X222.3483 Y89.3490

G01 Z-10.0000 F 100.0000(Penetrate)
G01 X222.3483 Y93.3479 Z-10.0000 F 400.0000
G01 X226.3802 Y93.3479 Z-10.0000
G01 X244.9536 Y138.6908 Z-10.0000
G01 X252.8523 Y138.6908 Z-10.0000
G01 X271.4587 Y93.3479 Z-10.0000
G01 X276.1516 Y93.3479 Z-10.0000
G01 X276.1516 Y89.3490 Z-10.0000
G01 X253.0506 Y89.3490 Z-10.0000
G01 X253.0506 Y93.3479 Z-10.0000
G01 X257.8757 Y93.3479 Z-10.0000
G01 X253.8107 Y103.4278 Z-10.0000
G01 X235.2703 Y103.4278 Z-10.0000
G01 X231.1393 Y93.3479 Z-10.0000
G01 X237.0219 Y93.3479 Z-10.0000
G01 X237.0219 Y89.3490 Z-10.0000
G01 X222.3483 Y89.3490 Z-10.0000
G01 X222.3483 Y89.3490 Z-10.0000
G00 Z5.0000

(End cutting path id: path5776)


(Start cutting path id: path5776)
(Change tool to Cylindrical cutter)

G00 Z5.0000
G00 X236.8897 Y107.4267

G01 Z-2.0000 F 100.0000(Penetrate)
G01 X252.1913 Y107.4267 Z-2.0000 F 400.0000
G01 X244.5901 Y126.2975 Z-2.0000
G01 X236.8897 Y107.4267 Z-2.0000
G01 X236.8897 Y107.4267 Z-2.0000
G00 Z5.0000

(End cutting path id: path5776)


(Start cutting path id: path5776)
(Change tool to Cylindrical cutter)

G00 Z5.0000
G00 X236.8897 Y107.4267

G01 Z-4.0000 F 100.0000(Penetrate)
G01 X252.1913 Y107.4267 Z-4.0000 F 400.0000
G01 X244.5901 Y126.2975 Z-4.0000
G01 X236.8897 Y107.4267 Z-4.0000
G01 X236.8897 Y107.4267 Z-4.0000
G00 Z5.0000

(End cutting path id: path5776)


(Start cutting path id: path5776)
(Change tool to Cylindrical cutter)

G00 Z5.0000
G00 X236.8897 Y107.4267

G01 Z-6.0000 F 100.0000(Penetrate)
G01 X252.1913 Y107.4267 Z-6.0000 F 400.0000
G01 X244.5901 Y126.2975 Z-6.0000
G01 X236.8897 Y107.4267 Z-6.0000
G01 X236.8897 Y107.4267 Z-6.0000
G00 Z5.0000

(End cutting path id: path5776)


(Start cutting path id: path5776)
(Change tool to Cylindrical cutter)

G00 Z5.0000
G00 X236.8897 Y107.4267

G01 Z-8.0000 F 100.0000(Penetrate)
G01 X252.1913 Y107.4267 Z-8.0000 F 400.0000
G01 X244.5901 Y126.2975 Z-8.0000
G01 X236.8897 Y107.4267 Z-8.0000
G01 X236.8897 Y107.4267 Z-8.0000
G00 Z5.0000

(End cutting path id: path5776)


(Start cutting path id: path5776)
(Change tool to Cylindrical cutter)

G00 Z5.0000
G00 X236.8897 Y107.4267

G01 Z-10.0000 F 100.0000(Penetrate)
G01 X252.1913 Y107.4267 Z-10.0000 F 400.0000
G01 X244.5901 Y126.2975 Z-10.0000
G01 X236.8897 Y107.4267 Z-10.0000
G01 X236.8897 Y107.4267 Z-10.0000
G00 Z5.0000

(End cutting path id: path5776)


(Start cutting path id: path5774)
(Change tool to Cylindrical cutter)

G00 Z5.0000
G00 X190.4893 Y89.3490

G01 Z-2.0000 F 100.0000(Penetrate)
G01 X190.4893 Y93.3479 Z-2.0000 F 400.0000
G01 X197.1321 Y93.3479 Z-2.0000
G01 X197.1321 Y109.7731 Z-2.0000
G01 X182.4584 Y134.6919 Z-2.0000
G01 X178.2613 Y134.6919 Z-2.0000
G01 X178.2613 Y138.6908 Z-2.0000
G01 X201.9242 Y138.6908 Z-2.0000
G01 X201.9242 Y134.6919 Z-2.0000
G01 X196.4381 Y134.6919 Z-2.0000
G01 X207.5424 Y115.8872 Z-2.0000
G01 X218.5807 Y134.6919 Z-2.0000
G01 X213.6565 Y134.6919 Z-2.0000
G01 X213.6565 Y138.6908 Z-2.0000
G01 X227.8013 Y138.6908 Z-2.0000
G01 X227.8013 Y134.6919 Z-2.0000
G01 X223.6041 Y134.6919 Z-2.0000
G01 X209.9220 Y111.4917 Z-2.0000
G01 X209.9220 Y93.3479 Z-2.0000
G01 X216.5648 Y93.3479 Z-2.0000
G01 X216.5648 Y89.3490 Z-2.0000
G01 X190.4893 Y89.3490 Z-2.0000
G01 X190.4893 Y89.3490 Z-2.0000
G00 Z5.0000

(End cutting path id: path5774)


(Start cutting path id: path5774)
(Change tool to Cylindrical cutter)

G00 Z5.0000
G00 X190.4893 Y89.3490

G01 Z-4.0000 F 100.0000(Penetrate)
G01 X190.4893 Y93.3479 Z-4.0000 F 400.0000
G01 X197.1321 Y93.3479 Z-4.0000
G01 X197.1321 Y109.7731 Z-4.0000
G01 X182.4584 Y134.6919 Z-4.0000
G01 X178.2613 Y134.6919 Z-4.0000
G01 X178.2613 Y138.6908 Z-4.0000
G01 X201.9242 Y138.6908 Z-4.0000
G01 X201.9242 Y134.6919 Z-4.0000
G01 X196.4381 Y134.6919 Z-4.0000
G01 X207.5424 Y115.8872 Z-4.0000
G01 X218.5807 Y134.6919 Z-4.0000
G01 X213.6565 Y134.6919 Z-4.0000
G01 X213.6565 Y138.6908 Z-4.0000
G01 X227.8013 Y138.6908 Z-4.0000
G01 X227.8013 Y134.6919 Z-4.0000
G01 X223.6041 Y134.6919 Z-4.0000
G01 X209.9220 Y111.4917 Z-4.0000
G01 X209.9220 Y93.3479 Z-4.0000
G01 X216.5648 Y93.3479 Z-4.0000
G01 X216.5648 Y89.3490 Z-4.0000
G01 X190.4893 Y89.3490 Z-4.0000
G01 X190.4893 Y89.3490 Z-4.0000
G00 Z5.0000

(End cutting path id: path5774)


(Start cutting path id: path5774)
(Change tool to Cylindrical cutter)

G00 Z5.0000
G00 X190.4893 Y89.3490

G01 Z-6.0000 F 100.0000(Penetrate)
G01 X190.4893 Y93.3479 Z-6.0000 F 400.0000
G01 X197.1321 Y93.3479 Z-6.0000
G01 X197.1321 Y109.7731 Z-6.0000
G01 X182.4584 Y134.6919 Z-6.0000
G01 X178.2613 Y134.6919 Z-6.0000
G01 X178.2613 Y138.6908 Z-6.0000
G01 X201.9242 Y138.6908 Z-6.0000
G01 X201.9242 Y134.6919 Z-6.0000
G01 X196.4381 Y134.6919 Z-6.0000
G01 X207.5424 Y115.8872 Z-6.0000
G01 X218.5807 Y134.6919 Z-6.0000
G01 X213.6565 Y134.6919 Z-6.0000
G01 X213.6565 Y138.6908 Z-6.0000
G01 X227.8013 Y138.6908 Z-6.0000
G01 X227.8013 Y134.6919 Z-6.0000
G01 X223.6041 Y134.6919 Z-6.0000
G01 X209.9220 Y111.4917 Z-6.0000
G01 X209.9220 Y93.3479 Z-6.0000
G01 X216.5648 Y93.3479 Z-6.0000
G01 X216.5648 Y89.3490 Z-6.0000
G01 X190.4893 Y89.3490 Z-6.0000
G01 X190.4893 Y89.3490 Z-6.0000
G00 Z5.0000

(End cutting path id: path5774)


(Start cutting path id: path5774)
(Change tool to Cylindrical cutter)

G00 Z5.0000
G00 X190.4893 Y89.3490

G01 Z-8.0000 F 100.0000(Penetrate)
G01 X190.4893 Y93.3479 Z-8.0000 F 400.0000
G01 X197.1321 Y93.3479 Z-8.0000
G01 X197.1321 Y109.7731 Z-8.0000
G01 X182.4584 Y134.6919 Z-8.0000
G01 X178.2613 Y134.6919 Z-8.0000
G01 X178.2613 Y138.6908 Z-8.0000
G01 X201.9242 Y138.6908 Z-8.0000
G01 X201.9242 Y134.6919 Z-8.0000
G01 X196.4381 Y134.6919 Z-8.0000
G01 X207.5424 Y115.8872 Z-8.0000
G01 X218.5807 Y134.6919 Z-8.0000
G01 X213.6565 Y134.6919 Z-8.0000
G01 X213.6565 Y138.6908 Z-8.0000
G01 X227.8013 Y138.6908 Z-8.0000
G01 X227.8013 Y134.6919 Z-8.0000
G01 X223.6041 Y134.6919 Z-8.0000
G01 X209.9220 Y111.4917 Z-8.0000
G01 X209.9220 Y93.3479 Z-8.0000
G01 X216.5648 Y93.3479 Z-8.0000
G01 X216.5648 Y89.3490 Z-8.0000
G01 X190.4893 Y89.3490 Z-8.0000
G01 X190.4893 Y89.3490 Z-8.0000
G00 Z5.0000

(End cutting path id: path5774)


(Start cutting path id: path5774)
(Change tool to Cylindrical cutter)

G00 Z5.0000
G00 X190.4893 Y89.3490

G01 Z-10.0000 F 100.0000(Penetrate)
G01 X190.4893 Y93.3479 Z-10.0000 F 400.0000
G01 X197.1321 Y93.3479 Z-10.0000
G01 X197.1321 Y109.7731 Z-10.0000
G01 X182.4584 Y134.6919 Z-10.0000
G01 X178.2613 Y134.6919 Z-10.0000
G01 X178.2613 Y138.6908 Z-10.0000
G01 X201.9242 Y138.6908 Z-10.0000
G01 X201.9242 Y134.6919 Z-10.0000
G01 X196.4381 Y134.6919 Z-10.0000
G01 X207.5424 Y115.8872 Z-10.0000
G01 X218.5807 Y134.6919 Z-10.0000
G01 X213.6565 Y134.6919 Z-10.0000
G01 X213.6565 Y138.6908 Z-10.0000
G01 X227.8013 Y138.6908 Z-10.0000
G01 X227.8013 Y134.6919 Z-10.0000
G01 X223.6041 Y134.6919 Z-10.0000
G01 X209.9220 Y111.4917 Z-10.0000
G01 X209.9220 Y93.3479 Z-10.0000
G01 X216.5648 Y93.3479 Z-10.0000
G01 X216.5648 Y89.3490 Z-10.0000
G01 X190.4893 Y89.3490 Z-10.0000
G01 X190.4893 Y89.3490 Z-10.0000
G00 Z5.0000

(End cutting path id: path5774)


(Start cutting path id: path5772)
(Change tool to Cylindrical cutter)

G00 Z5.0000
G00 X160.5802 Y113.4415

G01 Z-2.0000 F 100.0000(Penetrate)
G02 X161.3116 Y113.3150 Z-2.0000 I -2.0386 J -13.9566 F 400.0000
G02 X161.9930 Y113.1586 Z-2.0000 I -2.4568 J -12.2660
G02 X162.6641 Y112.9633 Z-2.0000 I -2.9679 J -11.4529
G02 X163.2902 Y112.7393 Z-2.0000 I -3.2943 J -10.1910
G02 X163.9006 Y112.4760 Z-2.0000 I -3.7534 J -9.5424
G02 X164.4717 Y112.1836 Z-2.0000 I -4.0641 J -8.6419
G02 X165.0214 Y111.8531 Z-2.0000 I -4.5105 J -8.1248
G02 X165.5375 Y111.4917 Z-2.0000 I -4.8820 J -7.5198
G02 X166.0275 Y111.0954 Z-2.0000 I -5.5895 J -7.4122
G02 X166.5124 Y110.6469 Z-2.0000 I -6.6807 J -7.7098
G02 X166.9683 Y110.1685 Z-2.0000 I -7.5665 J -7.6674
G02 X167.4213 Y109.6327 Z-2.0000 I -9.0468 J -8.1071
G02 X167.8437 Y109.0722 Z-2.0000 I -10.1390 J -8.0807
G02 X168.2640 Y108.4491 Z-2.0000 I -12.1099 J -8.6228
G02 X168.6535 Y107.8062 Z-2.0000 I -13.4584 J -8.5923
G02 X169.0407 Y107.0962 Z-2.0000 I -16.0226 J -9.1977
G01 X176.2453 Y93.3479 Z-2.0000
G01 X181.3017 Y93.3479 Z-2.0000
G01 X181.3017 Y89.3490 Z-2.0000
G01 X165.0748 Y89.3490 Z-2.0000
G01 X157.2092 Y104.2540 Z-2.0000
G03 X154.6709 Y108.6703 Z-2.0000 I -35.8629 J -17.6753
G03 X153.3094 Y110.1367 Z-2.0000 I -5.1423 J -3.4089
G03 X151.5862 Y111.0399 Z-2.0000 I -3.0947 J -3.8089
G03 X148.8809 Y111.4256 Z-2.0000 I -2.7053 J -9.2950
G01 X146.8649 Y111.4256 Z-2.0000
G01 X146.8649 Y93.3479 Z-2.0000
G01 X153.2103 Y93.3479 Z-2.0000
G01 X153.2103 Y89.3490 Z-2.0000
G01 X127.8289 Y89.3490 Z-2.0000
G01 X127.8289 Y93.3479 Z-2.0000
G01 X134.1412 Y93.3479 Z-2.0000
G01 X134.1412 Y134.6919 Z-2.0000
G01 X127.8289 Y134.6919 Z-2.0000
G01 X127.8289 Y138.6908 Z-2.0000
G01 X155.9864 Y138.6908 Z-2.0000
G02 X157.0601 Y138.6768 Z-2.0000 I -0.0000 J -41.3495
G02 X158.0731 Y138.6366 Z-2.0000 I -0.9559 J -36.8010
G02 X159.0845 Y138.5676 Z-2.0000 I -1.8597 J -34.7312
G02 X160.0369 Y138.4739 Z-2.0000 I -2.5587 J -30.8912
G02 X160.9858 Y138.3500 Z-2.0000 I -3.3153 J -29.0797
G02 X161.8779 Y138.2028 Z-2.0000 I -3.8060 J -25.8446
G02 X162.7640 Y138.0240 Z-2.0000 I -4.4419 J -24.2963
G02 X163.5959 Y137.8233 Z-2.0000 I -4.7742 J -21.6108
G02 X164.4190 Y137.5897 Z-2.0000 I -5.3145 J -20.2962
G02 X165.1910 Y137.3353 Z-2.0000 I -5.5382 J -18.1031
G02 X165.9509 Y137.0472 Z-2.0000 I -6.0075 J -16.9926
G02 X166.6632 Y136.7388 Z-2.0000 I -6.1733 J -15.2381
G02 X167.3597 Y136.3966 Z-2.0000 I -6.5973 J -14.3048
G02 X168.0125 Y136.0340 Z-2.0000 I -6.7534 J -12.9279
G02 X168.6455 Y135.6379 Z-2.0000 I -7.1581 J -12.1445
G02 X169.2389 Y135.2207 Z-2.0000 I -7.3554 J -11.0914
G02 X169.8126 Y134.7753 Z-2.0000 I -7.6372 J -10.4277
G02 X170.3389 Y134.3160 Z-2.0000 I -7.5968 J -9.2358
G02 X170.8369 Y133.8263 Z-2.0000 I -7.8594 J -8.4917
G02 X171.2921 Y133.3204 Z-2.0000 I -7.9366 J -7.5990
G02 X171.7148 Y132.7870 Z-2.0000 I -8.2371 J -6.9623
G02 X172.0987 Y132.2339 Z-2.0000 I -8.4776 J -6.2937
G02 X172.4465 Y131.6574 Z-2.0000 I -8.8390 J -5.7260
G02 X172.7586 Y131.0565 Z-2.0000 I -9.2894 J -5.2070
G02 X173.0322 Y130.4371 Z-2.0000 I -9.7334 J -4.6694
G02 X173.2719 Y129.7883 Z-2.0000 I -10.4437 J -4.2268
G02 X173.4719 Y129.1260 Z-2.0000 I -10.9933 J -3.6817
G02 X173.6386 Y128.4292 Z-2.0000 I -12.0084 J -3.2393
G02 X173.7656 Y127.7239 Z-2.0000 I -12.6856 J -2.6491
G02 X173.8585 Y126.9791 Z-2.0000 I -14.0525 J -2.1319
G02 X173.9130 Y126.2305 Z-2.0000 I -14.8829 J -1.4595
G02 X173.9319 Y125.4382 Z-2.0000 I -16.6481 J -0.7922
G02 X173.9185 Y124.7944 Z-2.0000 I -15.5112 J 0.0000
G02 X173.8797 Y124.1829 Z-2.0000 I -14.0265 J 0.5828
G02 X173.8136 Y123.5739 Z-2.0000 I -13.3401 J 1.1389
G02 X173.7232 Y122.9947 Z-2.0000 I -12.1522 J 1.6002
G02 X173.6047 Y122.4207 Z-2.0000 I -11.5837 J 2.0929
G02 X173.4625 Y121.8736 Z-2.0000 I -10.6645 J 2.4807
G02 X173.2918 Y121.3348 Z-2.0000 I -10.1945 J 2.9334
G02 X173.0974 Y120.8197 Z-2.0000 I -9.5138 J 3.2956
G02 X172.8749 Y120.3161 Z-2.0000 I -9.1278 J 3.7324
G02 X172.6280 Y119.8329 Z-2.0000 I -8.6529 J 4.1159
G02 X172.3541 Y119.3645 Z-2.0000 I -8.3379 J 4.5619
G02 X172.0543 Y118.9132 Z-2.0000 I -8.0372 J 5.0136
G02 X171.7293 Y118.4797 Z-2.0000 I -7.7753 J 5.4916
G02 X171.3763 Y118.0606 Z-2.0000 I -7.6227 J 6.0622
G02 X171.0004 Y117.6618 Z-2.0000 I -7.3990 J 6.5966
G02 X170.5939 Y117.2752 Z-2.0000 I -7.3589 J 7.3298
G02 X170.1715 Y116.9149 Z-2.0000 I -6.9795 J 7.7550
G02 X169.7145 Y116.5647 Z-2.0000 I -7.0518 J 8.7277
G02 X169.2405 Y116.2378 Z-2.0000 I -6.8713 J 9.4586
G02 X168.7288 Y115.9202 Z-2.0000 I -6.9954 J 10.7005
G02 X168.2029 Y115.6265 Z-2.0000 I -6.8052 J 11.5643
G02 X167.6366 Y115.3418 Z-2.0000 I -6.9540 J 13.1319
G02 X167.0589 Y115.0810 Z-2.0000 I -6.7379 J 14.1521
G02 X166.4381 Y114.8296 Z-2.0000 I -6.8766 J 16.0893
G02 X165.8083 Y114.6015 Z-2.0000 I -6.6204 J 17.2930
G02 X165.1332 Y114.3834 Z-2.0000 I -6.7205 J 19.6558
G02 X164.4511 Y114.1879 Z-2.0000 I -6.4072 J 21.0638
G02 X163.7219 Y114.0034 Z-2.0000 I -6.4357 J 23.8977
G02 X162.9874 Y113.8404 Z-2.0000 I -6.0522 J 25.5424
G02 X162.2042 Y113.6894 Z-2.0000 I -5.9768 J 28.8908
G02 X161.4172 Y113.5590 Z-2.0000 I -5.5069 J 30.7949
G02 X160.5802 Y113.4415 Z-2.0000 I -5.2985 J 34.7160
G01 X160.5802 Y113.4415 Z-2.0000
G00 Z5.0000

(End cutting path id: path5772)


(Start cutting path id: path5772)
(Change tool to Cylindrical cutter)

G00 Z5.0000
G00 X160.5802 Y113.4415

G01 Z-4.0000 F 100.0000(Penetrate)
G02 X161.3116 Y113.3150 Z-4.0000 I -2.0386 J -13.9566 F 400.0000
G02 X161.9930 Y113.1586 Z-4.0000 I -2.4568 J -12.2660
G02 X162.6641 Y112.9633 Z-4.0000 I -2.9679 J -11.4529
G02 X163.2902 Y112.7393 Z-4.0000 I -3.2943 J -10.1910
G02 X163.9006 Y112.4760 Z-4.0000 I -3.7534 J -9.5424
G02 X164.4717 Y112.1836 Z-4.0000 I -4.0641 J -8.6419
G02 X165.0214 Y111.8531 Z-4.0000 I -4.5105 J -8.1248
G02 X165.5375 Y111.4917 Z-4.0000 I -4.8820 J -7.5198
G02 X166.0275 Y111.0954 Z-4.0000 I -5.5895 J -7.4122
G02 X166.5124 Y110.6469 Z-4.0000 I -6.6807 J -7.7098
G02 X166.9683 Y110.1685 Z-4.0000 I -7.5665 J -7.6674
G02 X167.4213 Y109.6327 Z-4.0000 I -9.0468 J -8.1071
G02 X167.8437 Y109.0722 Z-4.0000 I -10.1390 J -8.0807
G02 X168.2640 Y108.4491 Z-4.0000 I -12.1099 J -8.6228
G02 X168.6535 Y107.8062 Z-4.0000 I -13.4584 J -8.5923
G02 X169.0407 Y107.0962 Z-4.0000 I -16.0226 J -9.1977
G01 X176.2453 Y93.3479 Z-4.0000
G01 X181.3017 Y93.3479 Z-4.0000
G01 X181.3017 Y89.3490 Z-4.0000
G01 X165.0748 Y89.3490 Z-4.0000
G01 X157.2092 Y104.2540 Z-4.0000
G03 X154.6709 Y108.6703 Z-4.0000 I -35.8629 J -17.6753
G03 X153.3094 Y110.1367 Z-4.0000 I -5.1423 J -3.4089
G03 X151.5862 Y111.0399 Z-4.0000 I -3.0947 J -3.8089
G03 X148.8809 Y111.4256 Z-4.0000 I -2.7053 J -9.2950
G01 X146.8649 Y111.4256 Z-4.0000
G01 X146.8649 Y93.3479 Z-4.0000
G01 X153.2103 Y93.3479 Z-4.0000
G01 X153.2103 Y89.3490 Z-4.0000
G01 X127.8289 Y89.3490 Z-4.0000
G01 X127.8289 Y93.3479 Z-4.0000
G01 X134.1412 Y93.3479 Z-4.0000
G01 X134.1412 Y134.6919 Z-4.0000
G01 X127.8289 Y134.6919 Z-4.0000
G01 X127.8289 Y138.6908 Z-4.0000
G01 X155.9864 Y138.6908 Z-4.0000
G02 X157.0601 Y138.6768 Z-4.0000 I -0.0000 J -41.3495
G02 X158.0731 Y138.6366 Z-4.0000 I -0.9559 J -36.8010
G02 X159.0845 Y138.5676 Z-4.0000 I -1.8597 J -34.7312
G02 X160.0369 Y138.4739 Z-4.0000 I -2.5587 J -30.8912
G02 X160.9858 Y138.3500 Z-4.0000 I -3.3153 J -29.0797
G02 X161.8779 Y138.2028 Z-4.0000 I -3.8060 J -25.8446
G02 X162.7640 Y138.0240 Z-4.0000 I -4.4419 J -24.2963
G02 X163.5959 Y137.8233 Z-4.0000 I -4.7742 J -21.6108
G02 X164.4190 Y137.5897 Z-4.0000 I -5.3145 J -20.2962
G02 X165.1910 Y137.3353 Z-4.0000 I -5.5382 J -18.1031
G02 X165.9509 Y137.0472 Z-4.0000 I -6.0075 J -16.9926
G02 X166.6632 Y136.7388 Z-4.0000 I -6.1733 J -15.2381
G02 X167.3597 Y136.3966 Z-4.0000 I -6.5973 J -14.3048
G02 X168.0125 Y136.0340 Z-4.0000 I -6.7534 J -12.9279
G02 X168.6455 Y135.6379 Z-4.0000 I -7.1581 J -12.1445
G02 X169.2389 Y135.2207 Z-4.0000 I -7.3554 J -11.0914
G02 X169.8126 Y134.7753 Z-4.0000 I -7.6372 J -10.4277
G02 X170.3389 Y134.3160 Z-4.0000 I -7.5968 J -9.2358
G02 X170.8369 Y133.8263 Z-4.0000 I -7.8594 J -8.4917
G02 X171.2921 Y133.3204 Z-4.0000 I -7.9366 J -7.5990
G02 X171.7148 Y132.7870 Z-4.0000 I -8.2371 J -6.9623
G02 X172.0987 Y132.2339 Z-4.0000 I -8.4776 J -6.2937
G02 X172.4465 Y131.6574 Z-4.0000 I -8.8390 J -5.7260
G02 X172.7586 Y131.0565 Z-4.0000 I -9.2894 J -5.2070
G02 X173.0322 Y130.4371 Z-4.0000 I -9.7334 J -4.6694
G02 X173.2719 Y129.7883 Z-4.0000 I -10.4437 J -4.2268
G02 X173.4719 Y129.1260 Z-4.0000 I -10.9933 J -3.6817
G02 X173.6386 Y128.4292 Z-4.0000 I -12.0084 J -3.2393
G02 X173.7656 Y127.7239 Z-4.0000 I -12.6856 J -2.6491
G02 X173.8585 Y126.9791 Z-4.0000 I -14.0525 J -2.1319
G02 X173.9130 Y126.2305 Z-4.0000 I -14.8829 J -1.4595
G02 X173.9319 Y125.4382 Z-4.0000 I -16.6481 J -0.7922
G02 X173.9185 Y124.7944 Z-4.0000 I -15.5112 J 0.0000
G02 X173.8797 Y124.1829 Z-4.0000 I -14.0265 J 0.5828
G02 X173.8136 Y123.5739 Z-4.0000 I -13.3401 J 1.1389
G02 X173.7232 Y122.9947 Z-4.0000 I -12.1522 J 1.6002
G02 X173.6047 Y122.4207 Z-4.0000 I -11.5837 J 2.0929
G02 X173.4625 Y121.8736 Z-4.0000 I -10.6645 J 2.4807
G02 X173.2918 Y121.3348 Z-4.0000 I -10.1945 J 2.9334
G02 X173.0974 Y120.8197 Z-4.0000 I -9.5138 J 3.2956
G02 X172.8749 Y120.3161 Z-4.0000 I -9.1278 J 3.7324
G02 X172.6280 Y119.8329 Z-4.0000 I -8.6529 J 4.1159
G02 X172.3541 Y119.3645 Z-4.0000 I -8.3379 J 4.5619
G02 X172.0543 Y118.9132 Z-4.0000 I -8.0372 J 5.0136
G02 X171.7293 Y118.4797 Z-4.0000 I -7.7753 J 5.4916
G02 X171.3763 Y118.0606 Z-4.0000 I -7.6227 J 6.0622
G02 X171.0004 Y117.6618 Z-4.0000 I -7.3990 J 6.5966
G02 X170.5939 Y117.2752 Z-4.0000 I -7.3589 J 7.3298
G02 X170.1715 Y116.9149 Z-4.0000 I -6.9795 J 7.7550
G02 X169.7145 Y116.5647 Z-4.0000 I -7.0518 J 8.7277
G02 X169.2405 Y116.2378 Z-4.0000 I -6.8713 J 9.4586
G02 X168.7288 Y115.9202 Z-4.0000 I -6.9954 J 10.7005
G02 X168.2029 Y115.6265 Z-4.0000 I -6.8052 J 11.5643
G02 X167.6366 Y115.3418 Z-4.0000 I -6.9540 J 13.1319
G02 X167.0589 Y115.0810 Z-4.0000 I -6.7379 J 14.1521
G02 X166.4381 Y114.8296 Z-4.0000 I -6.8766 J 16.0893
G02 X165.8083 Y114.6015 Z-4.0000 I -6.6204 J 17.2930
G02 X165.1332 Y114.3834 Z-4.0000 I -6.7205 J 19.6558
G02 X164.4511 Y114.1879 Z-4.0000 I -6.4072 J 21.0638
G02 X163.7219 Y114.0034 Z-4.0000 I -6.4357 J 23.8977
G02 X162.9874 Y113.8404 Z-4.0000 I -6.0522 J 25.5424
G02 X162.2042 Y113.6894 Z-4.0000 I -5.9768 J 28.8908
G02 X161.4172 Y113.5590 Z-4.0000 I -5.5069 J 30.7949
G02 X160.5802 Y113.4415 Z-4.0000 I -5.2985 J 34.7160
G01 X160.5802 Y113.4415 Z-4.0000
G00 Z5.0000

(End cutting path id: path5772)


(Start cutting path id: path5772)
(Change tool to Cylindrical cutter)

G00 Z5.0000
G00 X160.5802 Y113.4415

G01 Z-6.0000 F 100.0000(Penetrate)
G02 X161.3116 Y113.3150 Z-6.0000 I -2.0386 J -13.9566 F 400.0000
G02 X161.9930 Y113.1586 Z-6.0000 I -2.4568 J -12.2660
G02 X162.6641 Y112.9633 Z-6.0000 I -2.9679 J -11.4529
G02 X163.2902 Y112.7393 Z-6.0000 I -3.2943 J -10.1910
G02 X163.9006 Y112.4760 Z-6.0000 I -3.7534 J -9.5424
G02 X164.4717 Y112.1836 Z-6.0000 I -4.0641 J -8.6419
G02 X165.0214 Y111.8531 Z-6.0000 I -4.5105 J -8.1248
G02 X165.5375 Y111.4917 Z-6.0000 I -4.8820 J -7.5198
G02 X166.0275 Y111.0954 Z-6.0000 I -5.5895 J -7.4122
G02 X166.5124 Y110.6469 Z-6.0000 I -6.6807 J -7.7098
G02 X166.9683 Y110.1685 Z-6.0000 I -7.5665 J -7.6674
G02 X167.4213 Y109.6327 Z-6.0000 I -9.0468 J -8.1071
G02 X167.8437 Y109.0722 Z-6.0000 I -10.1390 J -8.0807
G02 X168.2640 Y108.4491 Z-6.0000 I -12.1099 J -8.6228
G02 X168.6535 Y107.8062 Z-6.0000 I -13.4584 J -8.5923
G02 X169.0407 Y107.0962 Z-6.0000 I -16.0226 J -9.1977
G01 X176.2453 Y93.3479 Z-6.0000
G01 X181.3017 Y93.3479 Z-6.0000
G01 X181.3017 Y89.3490 Z-6.0000
G01 X165.0748 Y89.3490 Z-6.0000
G01 X157.2092 Y104.2540 Z-6.0000
G03 X154.6709 Y108.6703 Z-6.0000 I -35.8629 J -17.6753
G03 X153.3094 Y110.1367 Z-6.0000 I -5.1423 J -3.4089
G03 X151.5862 Y111.0399 Z-6.0000 I -3.0947 J -3.8089
G03 X148.8809 Y111.4256 Z-6.0000 I -2.7053 J -9.2950
G01 X146.8649 Y111.4256 Z-6.0000
G01 X146.8649 Y93.3479 Z-6.0000
G01 X153.2103 Y93.3479 Z-6.0000
G01 X153.2103 Y89.3490 Z-6.0000
G01 X127.8289 Y89.3490 Z-6.0000
G01 X127.8289 Y93.3479 Z-6.0000
G01 X134.1412 Y93.3479 Z-6.0000
G01 X134.1412 Y134.6919 Z-6.0000
G01 X127.8289 Y134.6919 Z-6.0000
G01 X127.8289 Y138.6908 Z-6.0000
G01 X155.9864 Y138.6908 Z-6.0000
G02 X157.0601 Y138.6768 Z-6.0000 I -0.0000 J -41.3495
G02 X158.0731 Y138.6366 Z-6.0000 I -0.9559 J -36.8010
G02 X159.0845 Y138.5676 Z-6.0000 I -1.8597 J -34.7312
G02 X160.0369 Y138.4739 Z-6.0000 I -2.5587 J -30.8912
G02 X160.9858 Y138.3500 Z-6.0000 I -3.3153 J -29.0797
G02 X161.8779 Y138.2028 Z-6.0000 I -3.8060 J -25.8446
G02 X162.7640 Y138.0240 Z-6.0000 I -4.4419 J -24.2963
G02 X163.5959 Y137.8233 Z-6.0000 I -4.7742 J -21.6108
G02 X164.4190 Y137.5897 Z-6.0000 I -5.3145 J -20.2962
G02 X165.1910 Y137.3353 Z-6.0000 I -5.5382 J -18.1031
G02 X165.9509 Y137.0472 Z-6.0000 I -6.0075 J -16.9926
G02 X166.6632 Y136.7388 Z-6.0000 I -6.1733 J -15.2381
G02 X167.3597 Y136.3966 Z-6.0000 I -6.5973 J -14.3048
G02 X168.0125 Y136.0340 Z-6.0000 I -6.7534 J -12.9279
G02 X168.6455 Y135.6379 Z-6.0000 I -7.1581 J -12.1445
G02 X169.2389 Y135.2207 Z-6.0000 I -7.3554 J -11.0914
G02 X169.8126 Y134.7753 Z-6.0000 I -7.6372 J -10.4277
G02 X170.3389 Y134.3160 Z-6.0000 I -7.5968 J -9.2358
G02 X170.8369 Y133.8263 Z-6.0000 I -7.8594 J -8.4917
G02 X171.2921 Y133.3204 Z-6.0000 I -7.9366 J -7.5990
G02 X171.7148 Y132.7870 Z-6.0000 I -8.2371 J -6.9623
G02 X172.0987 Y132.2339 Z-6.0000 I -8.4776 J -6.2937
G02 X172.4465 Y131.6574 Z-6.0000 I -8.8390 J -5.7260
G02 X172.7586 Y131.0565 Z-6.0000 I -9.2894 J -5.2070
G02 X173.0322 Y130.4371 Z-6.0000 I -9.7334 J -4.6694
G02 X173.2719 Y129.7883 Z-6.0000 I -10.4437 J -4.2268
G02 X173.4719 Y129.1260 Z-6.0000 I -10.9933 J -3.6817
G02 X173.6386 Y128.4292 Z-6.0000 I -12.0084 J -3.2393
G02 X173.7656 Y127.7239 Z-6.0000 I -12.6856 J -2.6491
G02 X173.8585 Y126.9791 Z-6.0000 I -14.0525 J -2.1319
G02 X173.9130 Y126.2305 Z-6.0000 I -14.8829 J -1.4595
G02 X173.9319 Y125.4382 Z-6.0000 I -16.6481 J -0.7922
G02 X173.9185 Y124.7944 Z-6.0000 I -15.5112 J 0.0000
G02 X173.8797 Y124.1829 Z-6.0000 I -14.0265 J 0.5828
G02 X173.8136 Y123.5739 Z-6.0000 I -13.3401 J 1.1389
G02 X173.7232 Y122.9947 Z-6.0000 I -12.1522 J 1.6002
G02 X173.6047 Y122.4207 Z-6.0000 I -11.5837 J 2.0929
G02 X173.4625 Y121.8736 Z-6.0000 I -10.6645 J 2.4807
G02 X173.2918 Y121.3348 Z-6.0000 I -10.1945 J 2.9334
G02 X173.0974 Y120.8197 Z-6.0000 I -9.5138 J 3.2956
G02 X172.8749 Y120.3161 Z-6.0000 I -9.1278 J 3.7324
G02 X172.6280 Y119.8329 Z-6.0000 I -8.6529 J 4.1159
G02 X172.3541 Y119.3645 Z-6.0000 I -8.3379 J 4.5619
G02 X172.0543 Y118.9132 Z-6.0000 I -8.0372 J 5.0136
G02 X171.7293 Y118.4797 Z-6.0000 I -7.7753 J 5.4916
G02 X171.3763 Y118.0606 Z-6.0000 I -7.6227 J 6.0622
G02 X171.0004 Y117.6618 Z-6.0000 I -7.3990 J 6.5966
G02 X170.5939 Y117.2752 Z-6.0000 I -7.3589 J 7.3298
G02 X170.1715 Y116.9149 Z-6.0000 I -6.9795 J 7.7550
G02 X169.7145 Y116.5647 Z-6.0000 I -7.0518 J 8.7277
G02 X169.2405 Y116.2378 Z-6.0000 I -6.8713 J 9.4586
G02 X168.7288 Y115.9202 Z-6.0000 I -6.9954 J 10.7005
G02 X168.2029 Y115.6265 Z-6.0000 I -6.8052 J 11.5643
G02 X167.6366 Y115.3418 Z-6.0000 I -6.9540 J 13.1319
G02 X167.0589 Y115.0810 Z-6.0000 I -6.7379 J 14.1521
G02 X166.4381 Y114.8296 Z-6.0000 I -6.8766 J 16.0893
G02 X165.8083 Y114.6015 Z-6.0000 I -6.6204 J 17.2930
G02 X165.1332 Y114.3834 Z-6.0000 I -6.7205 J 19.6558
G02 X164.4511 Y114.1879 Z-6.0000 I -6.4072 J 21.0638
G02 X163.7219 Y114.0034 Z-6.0000 I -6.4357 J 23.8977
G02 X162.9874 Y113.8404 Z-6.0000 I -6.0522 J 25.5424
G02 X162.2042 Y113.6894 Z-6.0000 I -5.9768 J 28.8908
G02 X161.4172 Y113.5590 Z-6.0000 I -5.5069 J 30.7949
G02 X160.5802 Y113.4415 Z-6.0000 I -5.2985 J 34.7160
G01 X160.5802 Y113.4415 Z-6.0000
G00 Z5.0000

(End cutting path id: path5772)


(Start cutting path id: path5772)
(Change tool to Cylindrical cutter)

G00 Z5.0000
G00 X160.5802 Y113.4415

G01 Z-8.0000 F 100.0000(Penetrate)
G02 X161.3116 Y113.3150 Z-8.0000 I -2.0386 J -13.9566 F 400.0000
G02 X161.9930 Y113.1586 Z-8.0000 I -2.4568 J -12.2660
G02 X162.6641 Y112.9633 Z-8.0000 I -2.9679 J -11.4529
G02 X163.2902 Y112.7393 Z-8.0000 I -3.2943 J -10.1910
G02 X163.9006 Y112.4760 Z-8.0000 I -3.7534 J -9.5424
G02 X164.4717 Y112.1836 Z-8.0000 I -4.0641 J -8.6419
G02 X165.0214 Y111.8531 Z-8.0000 I -4.5105 J -8.1248
G02 X165.5375 Y111.4917 Z-8.0000 I -4.8820 J -7.5198
G02 X166.0275 Y111.0954 Z-8.0000 I -5.5895 J -7.4122
G02 X166.5124 Y110.6469 Z-8.0000 I -6.6807 J -7.7098
G02 X166.9683 Y110.1685 Z-8.0000 I -7.5665 J -7.6674
G02 X167.4213 Y109.6327 Z-8.0000 I -9.0468 J -8.1071
G02 X167.8437 Y109.0722 Z-8.0000 I -10.1390 J -8.0807
G02 X168.2640 Y108.4491 Z-8.0000 I -12.1099 J -8.6228
G02 X168.6535 Y107.8062 Z-8.0000 I -13.4584 J -8.5923
G02 X169.0407 Y107.0962 Z-8.0000 I -16.0226 J -9.1977
G01 X176.2453 Y93.3479 Z-8.0000
G01 X181.3017 Y93.3479 Z-8.0000
G01 X181.3017 Y89.3490 Z-8.0000
G01 X165.0748 Y89.3490 Z-8.0000
G01 X157.2092 Y104.2540 Z-8.0000
G03 X154.6709 Y108.6703 Z-8.0000 I -35.8629 J -17.6753
G03 X153.3094 Y110.1367 Z-8.0000 I -5.1423 J -3.4089
G03 X151.5862 Y111.0399 Z-8.0000 I -3.0947 J -3.8089
G03 X148.8809 Y111.4256 Z-8.0000 I -2.7053 J -9.2950
G01 X146.8649 Y111.4256 Z-8.0000
G01 X146.8649 Y93.3479 Z-8.0000
G01 X153.2103 Y93.3479 Z-8.0000
G01 X153.2103 Y89.3490 Z-8.0000
G01 X127.8289 Y89.3490 Z-8.0000
G01 X127.8289 Y93.3479 Z-8.0000
G01 X134.1412 Y93.3479 Z-8.0000
G01 X134.1412 Y134.6919 Z-8.0000
G01 X127.8289 Y134.6919 Z-8.0000
G01 X127.8289 Y138.6908 Z-8.0000
G01 X155.9864 Y138.6908 Z-8.0000
G02 X157.0601 Y138.6768 Z-8.0000 I -0.0000 J -41.3495
G02 X158.0731 Y138.6366 Z-8.0000 I -0.9559 J -36.8010
G02 X159.0845 Y138.5676 Z-8.0000 I -1.8597 J -34.7312
G02 X160.0369 Y138.4739 Z-8.0000 I -2.5587 J -30.8912
G02 X160.9858 Y138.3500 Z-8.0000 I -3.3153 J -29.0797
G02 X161.8779 Y138.2028 Z-8.0000 I -3.8060 J -25.8446
G02 X162.7640 Y138.0240 Z-8.0000 I -4.4419 J -24.2963
G02 X163.5959 Y137.8233 Z-8.0000 I -4.7742 J -21.6108
G02 X164.4190 Y137.5897 Z-8.0000 I -5.3145 J -20.2962
G02 X165.1910 Y137.3353 Z-8.0000 I -5.5382 J -18.1031
G02 X165.9509 Y137.0472 Z-8.0000 I -6.0075 J -16.9926
G02 X166.6632 Y136.7388 Z-8.0000 I -6.1733 J -15.2381
G02 X167.3597 Y136.3966 Z-8.0000 I -6.5973 J -14.3048
G02 X168.0125 Y136.0340 Z-8.0000 I -6.7534 J -12.9279
G02 X168.6455 Y135.6379 Z-8.0000 I -7.1581 J -12.1445
G02 X169.2389 Y135.2207 Z-8.0000 I -7.3554 J -11.0914
G02 X169.8126 Y134.7753 Z-8.0000 I -7.6372 J -10.4277
G02 X170.3389 Y134.3160 Z-8.0000 I -7.5968 J -9.2358
G02 X170.8369 Y133.8263 Z-8.0000 I -7.8594 J -8.4917
G02 X171.2921 Y133.3204 Z-8.0000 I -7.9366 J -7.5990
G02 X171.7148 Y132.7870 Z-8.0000 I -8.2371 J -6.9623
G02 X172.0987 Y132.2339 Z-8.0000 I -8.4776 J -6.2937
G02 X172.4465 Y131.6574 Z-8.0000 I -8.8390 J -5.7260
G02 X172.7586 Y131.0565 Z-8.0000 I -9.2894 J -5.2070
G02 X173.0322 Y130.4371 Z-8.0000 I -9.7334 J -4.6694
G02 X173.2719 Y129.7883 Z-8.0000 I -10.4437 J -4.2268
G02 X173.4719 Y129.1260 Z-8.0000 I -10.9933 J -3.6817
G02 X173.6386 Y128.4292 Z-8.0000 I -12.0084 J -3.2393
G02 X173.7656 Y127.7239 Z-8.0000 I -12.6856 J -2.6491
G02 X173.8585 Y126.9791 Z-8.0000 I -14.0525 J -2.1319
G02 X173.9130 Y126.2305 Z-8.0000 I -14.8829 J -1.4595
G02 X173.9319 Y125.4382 Z-8.0000 I -16.6481 J -0.7922
G02 X173.9185 Y124.7944 Z-8.0000 I -15.5112 J 0.0000
G02 X173.8797 Y124.1829 Z-8.0000 I -14.0265 J 0.5828
G02 X173.8136 Y123.5739 Z-8.0000 I -13.3401 J 1.1389
G02 X173.7232 Y122.9947 Z-8.0000 I -12.1522 J 1.6002
G02 X173.6047 Y122.4207 Z-8.0000 I -11.5837 J 2.0929
G02 X173.4625 Y121.8736 Z-8.0000 I -10.6645 J 2.4807
G02 X173.2918 Y121.3348 Z-8.0000 I -10.1945 J 2.9334
G02 X173.0974 Y120.8197 Z-8.0000 I -9.5138 J 3.2956
G02 X172.8749 Y120.3161 Z-8.0000 I -9.1278 J 3.7324
G02 X172.6280 Y119.8329 Z-8.0000 I -8.6529 J 4.1159
G02 X172.3541 Y119.3645 Z-8.0000 I -8.3379 J 4.5619
G02 X172.0543 Y118.9132 Z-8.0000 I -8.0372 J 5.0136
G02 X171.7293 Y118.4797 Z-8.0000 I -7.7753 J 5.4916
G02 X171.3763 Y118.0606 Z-8.0000 I -7.6227 J 6.0622
G02 X171.0004 Y117.6618 Z-8.0000 I -7.3990 J 6.5966
G02 X170.5939 Y117.2752 Z-8.0000 I -7.3589 J 7.3298
G02 X170.1715 Y116.9149 Z-8.0000 I -6.9795 J 7.7550
G02 X169.7145 Y116.5647 Z-8.0000 I -7.0518 J 8.7277
G02 X169.2405 Y116.2378 Z-8.0000 I -6.8713 J 9.4586
G02 X168.7288 Y115.9202 Z-8.0000 I -6.9954 J 10.7005
G02 X168.2029 Y115.6265 Z-8.0000 I -6.8052 J 11.5643
G02 X167.6366 Y115.3418 Z-8.0000 I -6.9540 J 13.1319
G02 X167.0589 Y115.0810 Z-8.0000 I -6.7379 J 14.1521
G02 X166.4381 Y114.8296 Z-8.0000 I -6.8766 J 16.0893
G02 X165.8083 Y114.6015 Z-8.0000 I -6.6204 J 17.2930
G02 X165.1332 Y114.3834 Z-8.0000 I -6.7205 J 19.6558
G02 X164.4511 Y114.1879 Z-8.0000 I -6.4072 J 21.0638
G02 X163.7219 Y114.0034 Z-8.0000 I -6.4357 J 23.8977
G02 X162.9874 Y113.8404 Z-8.0000 I -6.0522 J 25.5424
G02 X162.2042 Y113.6894 Z-8.0000 I -5.9768 J 28.8908
G02 X161.4172 Y113.5590 Z-8.0000 I -5.5069 J 30.7949
G02 X160.5802 Y113.4415 Z-8.0000 I -5.2985 J 34.7160
G01 X160.5802 Y113.4415 Z-8.0000
G00 Z5.0000

(End cutting path id: path5772)


(Start cutting path id: path5772)
(Change tool to Cylindrical cutter)

G00 Z5.0000
G00 X160.5802 Y113.4415

G01 Z-10.0000 F 100.0000(Penetrate)
G02 X161.3116 Y113.3150 Z-10.0000 I -2.0386 J -13.9566 F 400.0000
G02 X161.9930 Y113.1586 Z-10.0000 I -2.4568 J -12.2660
G02 X162.6641 Y112.9633 Z-10.0000 I -2.9679 J -11.4529
G02 X163.2902 Y112.7393 Z-10.0000 I -3.2943 J -10.1910
G02 X163.9006 Y112.4760 Z-10.0000 I -3.7534 J -9.5424
G02 X164.4717 Y112.1836 Z-10.0000 I -4.0641 J -8.6419
G02 X165.0214 Y111.8531 Z-10.0000 I -4.5105 J -8.1248
G02 X165.5375 Y111.4917 Z-10.0000 I -4.8820 J -7.5198
G02 X166.0275 Y111.0954 Z-10.0000 I -5.5895 J -7.4122
G02 X166.5124 Y110.6469 Z-10.0000 I -6.6807 J -7.7098
G02 X166.9683 Y110.1685 Z-10.0000 I -7.5665 J -7.6674
G02 X167.4213 Y109.6327 Z-10.0000 I -9.0468 J -8.1071
G02 X167.8437 Y109.0722 Z-10.0000 I -10.1390 J -8.0807
G02 X168.2640 Y108.4491 Z-10.0000 I -12.1099 J -8.6228
G02 X168.6535 Y107.8062 Z-10.0000 I -13.4584 J -8.5923
G02 X169.0407 Y107.0962 Z-10.0000 I -16.0226 J -9.1977
G01 X176.2453 Y93.3479 Z-10.0000
G01 X181.3017 Y93.3479 Z-10.0000
G01 X181.3017 Y89.3490 Z-10.0000
G01 X165.0748 Y89.3490 Z-10.0000
G01 X157.2092 Y104.2540 Z-10.0000
G03 X154.6709 Y108.6703 Z-10.0000 I -35.8629 J -17.6753
G03 X153.3094 Y110.1367 Z-10.0000 I -5.1423 J -3.4089
G03 X151.5862 Y111.0399 Z-10.0000 I -3.0947 J -3.8089
G03 X148.8809 Y111.4256 Z-10.0000 I -2.7053 J -9.2950
G01 X146.8649 Y111.4256 Z-10.0000
G01 X146.8649 Y93.3479 Z-10.0000
G01 X153.2103 Y93.3479 Z-10.0000
G01 X153.2103 Y89.3490 Z-10.0000
G01 X127.8289 Y89.3490 Z-10.0000
G01 X127.8289 Y93.3479 Z-10.0000
G01 X134.1412 Y93.3479 Z-10.0000
G01 X134.1412 Y134.6919 Z-10.0000
G01 X127.8289 Y134.6919 Z-10.0000
G01 X127.8289 Y138.6908 Z-10.0000
G01 X155.9864 Y138.6908 Z-10.0000
G02 X157.0601 Y138.6768 Z-10.0000 I -0.0000 J -41.3495
G02 X158.0731 Y138.6366 Z-10.0000 I -0.9559 J -36.8010
G02 X159.0845 Y138.5676 Z-10.0000 I -1.8597 J -34.7312
G02 X160.0369 Y138.4739 Z-10.0000 I -2.5587 J -30.8912
G02 X160.9858 Y138.3500 Z-10.0000 I -3.3153 J -29.0797
G02 X161.8779 Y138.2028 Z-10.0000 I -3.8060 J -25.8446
G02 X162.7640 Y138.0240 Z-10.0000 I -4.4419 J -24.2963
G02 X163.5959 Y137.8233 Z-10.0000 I -4.7742 J -21.6108
G02 X164.4190 Y137.5897 Z-10.0000 I -5.3145 J -20.2962
G02 X165.1910 Y137.3353 Z-10.0000 I -5.5382 J -18.1031
G02 X165.9509 Y137.0472 Z-10.0000 I -6.0075 J -16.9926
G02 X166.6632 Y136.7388 Z-10.0000 I -6.1733 J -15.2381
G02 X167.3597 Y136.3966 Z-10.0000 I -6.5973 J -14.3048
G02 X168.0125 Y136.0340 Z-10.0000 I -6.7534 J -12.9279
G02 X168.6455 Y135.6379 Z-10.0000 I -7.1581 J -12.1445
G02 X169.2389 Y135.2207 Z-10.0000 I -7.3554 J -11.0914
G02 X169.8126 Y134.7753 Z-10.0000 I -7.6372 J -10.4277
G02 X170.3389 Y134.3160 Z-10.0000 I -7.5968 J -9.2358
G02 X170.8369 Y133.8263 Z-10.0000 I -7.8594 J -8.4917
G02 X171.2921 Y133.3204 Z-10.0000 I -7.9366 J -7.5990
G02 X171.7148 Y132.7870 Z-10.0000 I -8.2371 J -6.9623
G02 X172.0987 Y132.2339 Z-10.0000 I -8.4776 J -6.2937
G02 X172.4465 Y131.6574 Z-10.0000 I -8.8390 J -5.7260
G02 X172.7586 Y131.0565 Z-10.0000 I -9.2894 J -5.2070
G02 X173.0322 Y130.4371 Z-10.0000 I -9.7334 J -4.6694
G02 X173.2719 Y129.7883 Z-10.0000 I -10.4437 J -4.2268
G02 X173.4719 Y129.1260 Z-10.0000 I -10.9933 J -3.6817
G02 X173.6386 Y128.4292 Z-10.0000 I -12.0084 J -3.2393
G02 X173.7656 Y127.7239 Z-10.0000 I -12.6856 J -2.6491
G02 X173.8585 Y126.9791 Z-10.0000 I -14.0525 J -2.1319
G02 X173.9130 Y126.2305 Z-10.0000 I -14.8829 J -1.4595
G02 X173.9319 Y125.4382 Z-10.0000 I -16.6481 J -0.7922
G02 X173.9185 Y124.7944 Z-10.0000 I -15.5112 J 0.0000
G02 X173.8797 Y124.1829 Z-10.0000 I -14.0265 J 0.5828
G02 X173.8136 Y123.5739 Z-10.0000 I -13.3401 J 1.1389
G02 X173.7232 Y122.9947 Z-10.0000 I -12.1522 J 1.6002
G02 X173.6047 Y122.4207 Z-10.0000 I -11.5837 J 2.0929
G02 X173.4625 Y121.8736 Z-10.0000 I -10.6645 J 2.4807
G02 X173.2918 Y121.3348 Z-10.0000 I -10.1945 J 2.9334
G02 X173.0974 Y120.8197 Z-10.0000 I -9.5138 J 3.2956
G02 X172.8749 Y120.3161 Z-10.0000 I -9.1278 J 3.7324
G02 X172.6280 Y119.8329 Z-10.0000 I -8.6529 J 4.1159
G02 X172.3541 Y119.3645 Z-10.0000 I -8.3379 J 4.5619
G02 X172.0543 Y118.9132 Z-10.0000 I -8.0372 J 5.0136
G02 X171.7293 Y118.4797 Z-10.0000 I -7.7753 J 5.4916
G02 X171.3763 Y118.0606 Z-10.0000 I -7.6227 J 6.0622
G02 X171.0004 Y117.6618 Z-10.0000 I -7.3990 J 6.5966
G02 X170.5939 Y117.2752 Z-10.0000 I -7.3589 J 7.3298
G02 X170.1715 Y116.9149 Z-10.0000 I -6.9795 J 7.7550
G02 X169.7145 Y116.5647 Z-10.0000 I -7.0518 J 8.7277
G02 X169.2405 Y116.2378 Z-10.0000 I -6.8713 J 9.4586
G02 X168.7288 Y115.9202 Z-10.0000 I -6.9954 J 10.7005
G02 X168.2029 Y115.6265 Z-10.0000 I -6.8052 J 11.5643
G02 X167.6366 Y115.3418 Z-10.0000 I -6.9540 J 13.1319
G02 X167.0589 Y115.0810 Z-10.0000 I -6.7379 J 14.1521
G02 X166.4381 Y114.8296 Z-10.0000 I -6.8766 J 16.0893
G02 X165.8083 Y114.6015 Z-10.0000 I -6.6204 J 17.2930
G02 X165.1332 Y114.3834 Z-10.0000 I -6.7205 J 19.6558
G02 X164.4511 Y114.1879 Z-10.0000 I -6.4072 J 21.0638
G02 X163.7219 Y114.0034 Z-10.0000 I -6.4357 J 23.8977
G02 X162.9874 Y113.8404 Z-10.0000 I -6.0522 J 25.5424
G02 X162.2042 Y113.6894 Z-10.0000 I -5.9768 J 28.8908
G02 X161.4172 Y113.5590 Z-10.0000 I -5.5069 J 30.7949
G02 X160.5802 Y113.4415 Z-10.0000 I -5.2985 J 34.7160
G01 X160.5802 Y113.4415 Z-10.0000
G00 Z5.0000

(End cutting path id: path5772)


(Start cutting path id: path5772)
(Change tool to Cylindrical cutter)

G00 Z5.0000
G00 X146.8649 Y115.3914

G01 Z-2.0000 F 100.0000(Penetrate)
G01 X151.1943 Y115.3914 Z-2.0000 F 400.0000
G03 X152.3479 Y115.4329 Z-2.0000 I 0.0000 J 16.0546
G03 X153.3735 Y115.5484 Z-2.0000 I -0.9222 J 12.8022
G03 X154.3847 Y115.7502 Z-2.0000 I -1.7525 J 11.4143
G03 X155.2841 Y116.0193 Z-2.0000 I -2.2911 J 9.2951
G03 X156.1506 Y116.3784 Z-2.0000 I -2.9475 J 8.3382
G03 X156.9262 Y116.8043 Z-2.0000 I -3.3948 J 7.1023
G03 X157.6478 Y117.3156 Z-2.0000 I -4.0279 J 6.4482
G03 X158.2998 Y117.9031 Z-2.0000 I -4.6776 J 5.8470
G03 X158.8871 Y118.5632 Z-2.0000 I -5.3665 J 5.3665
G03 X159.3987 Y119.2932 Z-2.0000 I -6.0610 J 4.7911
G03 X159.8245 Y120.0769 Z-2.0000 I -6.8106 J 4.2082
G03 X160.1836 Y120.9519 Z-2.0000 I -8.1357 J 3.8500
G03 X160.4527 Y121.8595 Z-2.0000 I -9.1951 J 3.2204
G03 X160.6545 Y122.8790 Z-2.0000 I -11.4080 J 2.7878
G03 X160.7700 Y123.9129 Z-2.0000 I -12.8960 J 1.9641
G03 X160.8115 Y125.0747 Z-2.0000 I -16.2504 J 1.1618
G03 X160.7700 Y126.2365 Z-2.0000 I -16.2765 J -0.0000
G03 X160.6545 Y127.2683 Z-2.0000 I -12.9483 J -0.9266
G03 X160.4526 Y128.2857 Z-2.0000 I -11.5283 J -1.7594
G03 X160.1836 Y129.1893 Z-2.0000 I -9.3559 J -2.2937
G03 X159.8243 Y130.0598 Z-2.0000 I -8.3772 J -2.9475
G03 X159.3987 Y130.8376 Z-2.0000 I -7.1061 J -3.3839
G03 X158.8870 Y131.5610 Z-2.0000 I -6.4382 J -4.0107
G03 X158.2998 Y132.2132 Z-2.0000 I -5.8138 J -4.6440
G03 X157.6483 Y132.7926 Z-2.0000 I -5.2673 J -5.2673
G03 X156.9262 Y133.2976 Z-2.0000 I -4.7149 J -5.9722
G03 X156.1510 Y133.7177 Z-2.0000 I -4.1453 J -6.7246
G03 X155.2841 Y134.0722 Z-2.0000 I -3.8032 J -8.0628
G03 X154.3849 Y134.3377 Z-2.0000 I -3.1838 J -9.1268
G03 X153.3735 Y134.5370 Z-2.0000 I -2.7622 J -11.3558
G03 X152.3479 Y134.6509 Z-2.0000 I -1.9472 J -12.8516
G03 X151.1943 Y134.6919 Z-2.0000 I -1.1536 J -16.2276
G01 X146.8649 Y134.6919 Z-2.0000
G01 X146.8649 Y115.3914 Z-2.0000
G00 Z5.0000

(End cutting path id: path5772)


(Start cutting path id: path5772)
(Change tool to Cylindrical cutter)

G00 Z5.0000
G00 X146.8649 Y115.3914

G01 Z-4.0000 F 100.0000(Penetrate)
G01 X151.1943 Y115.3914 Z-4.0000 F 400.0000
G03 X152.3479 Y115.4329 Z-4.0000 I 0.0000 J 16.0546
G03 X153.3735 Y115.5484 Z-4.0000 I -0.9222 J 12.8022
G03 X154.3847 Y115.7502 Z-4.0000 I -1.7525 J 11.4143
G03 X155.2841 Y116.0193 Z-4.0000 I -2.2911 J 9.2951
G03 X156.1506 Y116.3784 Z-4.0000 I -2.9475 J 8.3382
G03 X156.9262 Y116.8043 Z-4.0000 I -3.3948 J 7.1023
G03 X157.6478 Y117.3156 Z-4.0000 I -4.0279 J 6.4482
G03 X158.2998 Y117.9031 Z-4.0000 I -4.6776 J 5.8470
G03 X158.8871 Y118.5632 Z-4.0000 I -5.3665 J 5.3665
G03 X159.3987 Y119.2932 Z-4.0000 I -6.0610 J 4.7911
G03 X159.8245 Y120.0769 Z-4.0000 I -6.8106 J 4.2082
G03 X160.1836 Y120.9519 Z-4.0000 I -8.1357 J 3.8500
G03 X160.4527 Y121.8595 Z-4.0000 I -9.1951 J 3.2204
G03 X160.6545 Y122.8790 Z-4.0000 I -11.4080 J 2.7878
G03 X160.7700 Y123.9129 Z-4.0000 I -12.8960 J 1.9641
G03 X160.8115 Y125.0747 Z-4.0000 I -16.2504 J 1.1618
G03 X160.7700 Y126.2365 Z-4.0000 I -16.2765 J -0.0000
G03 X160.6545 Y127.2683 Z-4.0000 I -12.9483 J -0.9266
G03 X160.4526 Y128.2857 Z-4.0000 I -11.5283 J -1.7594
G03 X160.1836 Y129.1893 Z-4.0000 I -9.3559 J -2.2937
G03 X159.8243 Y130.0598 Z-4.0000 I -8.3772 J -2.9475
G03 X159.3987 Y130.8376 Z-4.0000 I -7.1061 J -3.3839
G03 X158.8870 Y131.5610 Z-4.0000 I -6.4382 J -4.0107
G03 X158.2998 Y132.2132 Z-4.0000 I -5.8138 J -4.6440
G03 X157.6483 Y132.7926 Z-4.0000 I -5.2673 J -5.2673
G03 X156.9262 Y133.2976 Z-4.0000 I -4.7149 J -5.9722
G03 X156.1510 Y133.7177 Z-4.0000 I -4.1453 J -6.7246
G03 X155.2841 Y134.0722 Z-4.0000 I -3.8032 J -8.0628
G03 X154.3849 Y134.3377 Z-4.0000 I -3.1838 J -9.1268
G03 X153.3735 Y134.5370 Z-4.0000 I -2.7622 J -11.3558
G03 X152.3479 Y134.6509 Z-4.0000 I -1.9472 J -12.8516
G03 X151.1943 Y134.6919 Z-4.0000 I -1.1536 J -16.2276
G01 X146.8649 Y134.6919 Z-4.0000
G01 X146.8649 Y115.3914 Z-4.0000
G00 Z5.0000

(End cutting path id: path5772)


(Start cutting path id: path5772)
(Change tool to Cylindrical cutter)

G00 Z5.0000
G00 X146.8649 Y115.3914

G01 Z-6.0000 F 100.0000(Penetrate)
G01 X151.1943 Y115.3914 Z-6.0000 F 400.0000
G03 X152.3479 Y115.4329 Z-6.0000 I 0.0000 J 16.0546
G03 X153.3735 Y115.5484 Z-6.0000 I -0.9222 J 12.8022
G03 X154.3847 Y115.7502 Z-6.0000 I -1.7525 J 11.4143
G03 X155.2841 Y116.0193 Z-6.0000 I -2.2911 J 9.2951
G03 X156.1506 Y116.3784 Z-6.0000 I -2.9475 J 8.3382
G03 X156.9262 Y116.8043 Z-6.0000 I -3.3948 J 7.1023
G03 X157.6478 Y117.3156 Z-6.0000 I -4.0279 J 6.4482
G03 X158.2998 Y117.9031 Z-6.0000 I -4.6776 J 5.8470
G03 X158.8871 Y118.5632 Z-6.0000 I -5.3665 J 5.3665
G03 X159.3987 Y119.2932 Z-6.0000 I -6.0610 J 4.7911
G03 X159.8245 Y120.0769 Z-6.0000 I -6.8106 J 4.2082
G03 X160.1836 Y120.9519 Z-6.0000 I -8.1357 J 3.8500
G03 X160.4527 Y121.8595 Z-6.0000 I -9.1951 J 3.2204
G03 X160.6545 Y122.8790 Z-6.0000 I -11.4080 J 2.7878
G03 X160.7700 Y123.9129 Z-6.0000 I -12.8960 J 1.9641
G03 X160.8115 Y125.0747 Z-6.0000 I -16.2504 J 1.1618
G03 X160.7700 Y126.2365 Z-6.0000 I -16.2765 J -0.0000
G03 X160.6545 Y127.2683 Z-6.0000 I -12.9483 J -0.9266
G03 X160.4526 Y128.2857 Z-6.0000 I -11.5283 J -1.7594
G03 X160.1836 Y129.1893 Z-6.0000 I -9.3559 J -2.2937
G03 X159.8243 Y130.0598 Z-6.0000 I -8.3772 J -2.9475
G03 X159.3987 Y130.8376 Z-6.0000 I -7.1061 J -3.3839
G03 X158.8870 Y131.5610 Z-6.0000 I -6.4382 J -4.0107
G03 X158.2998 Y132.2132 Z-6.0000 I -5.8138 J -4.6440
G03 X157.6483 Y132.7926 Z-6.0000 I -5.2673 J -5.2673
G03 X156.9262 Y133.2976 Z-6.0000 I -4.7149 J -5.9722
G03 X156.1510 Y133.7177 Z-6.0000 I -4.1453 J -6.7246
G03 X155.2841 Y134.0722 Z-6.0000 I -3.8032 J -8.0628
G03 X154.3849 Y134.3377 Z-6.0000 I -3.1838 J -9.1268
G03 X153.3735 Y134.5370 Z-6.0000 I -2.7622 J -11.3558
G03 X152.3479 Y134.6509 Z-6.0000 I -1.9472 J -12.8516
G03 X151.1943 Y134.6919 Z-6.0000 I -1.1536 J -16.2276
G01 X146.8649 Y134.6919 Z-6.0000
G01 X146.8649 Y115.3914 Z-6.0000
G00 Z5.0000

(End cutting path id: path5772)


(Start cutting path id: path5772)
(Change tool to Cylindrical cutter)

G00 Z5.0000
G00 X146.8649 Y115.3914

G01 Z-8.0000 F 100.0000(Penetrate)
G01 X151.1943 Y115.3914 Z-8.0000 F 400.0000
G03 X152.3479 Y115.4329 Z-8.0000 I 0.0000 J 16.0546
G03 X153.3735 Y115.5484 Z-8.0000 I -0.9222 J 12.8022
G03 X154.3847 Y115.7502 Z-8.0000 I -1.7525 J 11.4143
G03 X155.2841 Y116.0193 Z-8.0000 I -2.2911 J 9.2951
G03 X156.1506 Y116.3784 Z-8.0000 I -2.9475 J 8.3382
G03 X156.9262 Y116.8043 Z-8.0000 I -3.3948 J 7.1023
G03 X157.6478 Y117.3156 Z-8.0000 I -4.0279 J 6.4482
G03 X158.2998 Y117.9031 Z-8.0000 I -4.6776 J 5.8470
G03 X158.8871 Y118.5632 Z-8.0000 I -5.3665 J 5.3665
G03 X159.3987 Y119.2932 Z-8.0000 I -6.0610 J 4.7911
G03 X159.8245 Y120.0769 Z-8.0000 I -6.8106 J 4.2082
G03 X160.1836 Y120.9519 Z-8.0000 I -8.1357 J 3.8500
G03 X160.4527 Y121.8595 Z-8.0000 I -9.1951 J 3.2204
G03 X160.6545 Y122.8790 Z-8.0000 I -11.4080 J 2.7878
G03 X160.7700 Y123.9129 Z-8.0000 I -12.8960 J 1.9641
G03 X160.8115 Y125.0747 Z-8.0000 I -16.2504 J 1.1618
G03 X160.7700 Y126.2365 Z-8.0000 I -16.2765 J -0.0000
G03 X160.6545 Y127.2683 Z-8.0000 I -12.9483 J -0.9266
G03 X160.4526 Y128.2857 Z-8.0000 I -11.5283 J -1.7594
G03 X160.1836 Y129.1893 Z-8.0000 I -9.3559 J -2.2937
G03 X159.8243 Y130.0598 Z-8.0000 I -8.3772 J -2.9475
G03 X159.3987 Y130.8376 Z-8.0000 I -7.1061 J -3.3839
G03 X158.8870 Y131.5610 Z-8.0000 I -6.4382 J -4.0107
G03 X158.2998 Y132.2132 Z-8.0000 I -5.8138 J -4.6440
G03 X157.6483 Y132.7926 Z-8.0000 I -5.2673 J -5.2673
G03 X156.9262 Y133.2976 Z-8.0000 I -4.7149 J -5.9722
G03 X156.1510 Y133.7177 Z-8.0000 I -4.1453 J -6.7246
G03 X155.2841 Y134.0722 Z-8.0000 I -3.8032 J -8.0628
G03 X154.3849 Y134.3377 Z-8.0000 I -3.1838 J -9.1268
G03 X153.3735 Y134.5370 Z-8.0000 I -2.7622 J -11.3558
G03 X152.3479 Y134.6509 Z-8.0000 I -1.9472 J -12.8516
G03 X151.1943 Y134.6919 Z-8.0000 I -1.1536 J -16.2276
G01 X146.8649 Y134.6919 Z-8.0000
G01 X146.8649 Y115.3914 Z-8.0000
G00 Z5.0000

(End cutting path id: path5772)


(Start cutting path id: path5772)
(Change tool to Cylindrical cutter)

G00 Z5.0000
G00 X146.8649 Y115.3914

G01 Z-10.0000 F 100.0000(Penetrate)
G01 X151.1943 Y115.3914 Z-10.0000 F 400.0000
G03 X152.3479 Y115.4329 Z-10.0000 I 0.0000 J 16.0546
G03 X153.3735 Y115.5484 Z-10.0000 I -0.9222 J 12.8022
G03 X154.3847 Y115.7502 Z-10.0000 I -1.7525 J 11.4143
G03 X155.2841 Y116.0193 Z-10.0000 I -2.2911 J 9.2951
G03 X156.1506 Y116.3784 Z-10.0000 I -2.9475 J 8.3382
G03 X156.9262 Y116.8043 Z-10.0000 I -3.3948 J 7.1023
G03 X157.6478 Y117.3156 Z-10.0000 I -4.0279 J 6.4482
G03 X158.2998 Y117.9031 Z-10.0000 I -4.6776 J 5.8470
G03 X158.8871 Y118.5632 Z-10.0000 I -5.3665 J 5.3665
G03 X159.3987 Y119.2932 Z-10.0000 I -6.0610 J 4.7911
G03 X159.8245 Y120.0769 Z-10.0000 I -6.8106 J 4.2082
G03 X160.1836 Y120.9519 Z-10.0000 I -8.1357 J 3.8500
G03 X160.4527 Y121.8595 Z-10.0000 I -9.1951 J 3.2204
G03 X160.6545 Y122.8790 Z-10.0000 I -11.4080 J 2.7878
G03 X160.7700 Y123.9129 Z-10.0000 I -12.8960 J 1.9641
G03 X160.8115 Y125.0747 Z-10.0000 I -16.2504 J 1.1618
G03 X160.7700 Y126.2365 Z-10.0000 I -16.2765 J -0.0000
G03 X160.6545 Y127.2683 Z-10.0000 I -12.9483 J -0.9266
G03 X160.4526 Y128.2857 Z-10.0000 I -11.5283 J -1.7594
G03 X160.1836 Y129.1893 Z-10.0000 I -9.3559 J -2.2937
G03 X159.8243 Y130.0598 Z-10.0000 I -8.3772 J -2.9475
G03 X159.3987 Y130.8376 Z-10.0000 I -7.1061 J -3.3839
G03 X158.8870 Y131.5610 Z-10.0000 I -6.4382 J -4.0107
G03 X158.2998 Y132.2132 Z-10.0000 I -5.8138 J -4.6440
G03 X157.6483 Y132.7926 Z-10.0000 I -5.2673 J -5.2673
G03 X156.9262 Y133.2976 Z-10.0000 I -4.7149 J -5.9722
G03 X156.1510 Y133.7177 Z-10.0000 I -4.1453 J -6.7246
G03 X155.2841 Y134.0722 Z-10.0000 I -3.8032 J -8.0628
G03 X154.3849 Y134.3377 Z-10.0000 I -3.1838 J -9.1268
G03 X153.3735 Y134.5370 Z-10.0000 I -2.7622 J -11.3558
G03 X152.3479 Y134.6509 Z-10.0000 I -1.9472 J -12.8516
G03 X151.1943 Y134.6919 Z-10.0000 I -1.1536 J -16.2276
G01 X146.8649 Y134.6919 Z-10.0000
G01 X146.8649 Y115.3914 Z-10.0000
G00 Z5.0000

(End cutting path id: path5772)


(Start cutting path id: path5770)
(Change tool to Cylindrical cutter)

G00 Z5.0000
G00 X74.1577 Y134.6919

G01 Z-2.0000 F 100.0000(Penetrate)
G01 X67.8784 Y134.6919 Z-2.0000 F 400.0000
G01 X67.8784 Y138.6908 Z-2.0000
G01 X93.2599 Y138.6908 Z-2.0000
G01 X93.2599 Y134.6919 Z-2.0000
G01 X86.9476 Y134.6919 Z-2.0000
G01 X86.9476 Y110.0045 Z-2.0000
G03 X86.9960 Y107.7015 Z-2.0000 I 54.7098 J 0.0000
G03 X87.1273 Y105.7391 Z-2.0000 I 39.8528 J 1.6790
G03 X87.3636 Y103.7878 Z-2.0000 I 33.6188 J 3.0821
G03 X87.6664 Y102.1637 Z-2.0000 I 23.5823 J 3.5557
G03 X88.0912 Y100.5694 Z-2.0000 I 19.4264 J 4.3225
G03 X88.5649 Y99.2781 Z-2.0000 I 13.2055 J 4.1120
G03 X89.1749 Y98.0494 Z-2.0000 I 10.6261 J 4.5096
G03 X89.8228 Y97.0824 Z-2.0000 I 7.2115 J 4.1315
G03 X90.6009 Y96.2277 Z-2.0000 I 6.1714 J 4.8371
G03 X91.5165 Y95.4775 Z-2.0000 I 5.6564 J 5.9694
G03 X92.5292 Y94.8611 Z-2.0000 I 5.0601 J 7.1722
G03 X93.7226 Y94.3311 Z-2.0000 I 4.9106 J 9.4496
G03 X94.9716 Y93.9417 Z-2.0000 I 4.2026 J 11.2826
G03 X96.4408 Y93.6433 Z-2.0000 I 3.8778 J 15.3246
G03 X97.9327 Y93.4756 Z-2.0000 I 2.7867 J 18.0763
G03 X99.6713 Y93.4140 Z-2.0000 I 1.7386 J 24.4970
G03 X101.3684 Y93.4761 Z-2.0000 I -0.0000 J 23.2154
G03 X102.8275 Y93.6453 Z-2.0000 I -1.2696 J 17.3210
G03 X104.2630 Y93.9460 Z-2.0000 I -2.3666 J 14.8756
G03 X105.4879 Y94.3394 Z-2.0000 I -2.9251 J 11.2128
G03 X106.6558 Y94.8729 Z-2.0000 I -3.6959 J 9.6359
G03 X107.6526 Y95.4961 Z-2.0000 I -4.0770 J 7.6299
G03 X108.5517 Y96.2511 Z-2.0000 I -4.7999 J 6.6285
G03 X109.3216 Y97.1155 Z-2.0000 I -5.5395 J 5.7090
G03 X109.9702 Y98.0901 Z-2.0000 I -6.7329 J 5.1837
G03 X110.5795 Y99.3215 Z-2.0000 I -10.1658 J 5.7968
G03 X111.0536 Y100.6147 Z-2.0000 I -12.8546 J 5.4465
G03 X111.4780 Y102.2050 Z-2.0000 I -19.0331 J 5.9308
G03 X111.7809 Y103.8250 Z-2.0000 I -23.2392 J 5.1841
G03 X112.0171 Y105.7660 Z-2.0000 I -33.1384 J 5.0169
G03 X112.1484 Y107.7181 Z-2.0000 I -39.3403 J 3.6256
G03 X112.1968 Y110.0045 Z-2.0000 I -53.9272 J 2.2864
G01 X112.1968 Y134.6919 Z-2.0000
G01 X105.9175 Y134.6919 Z-2.0000
G01 X105.9175 Y138.6908 Z-2.0000
G01 X123.1029 Y138.6908 Z-2.0000
G01 X123.1029 Y134.6919 Z-2.0000
G01 X116.7906 Y134.6919 Z-2.0000
G01 X116.7906 Y109.3105 Z-2.0000
G02 X116.7708 Y107.8982 Z-2.0000 I -50.3553 J -0.0000
G02 X116.7142 Y106.5860 Z-2.0000 I -43.5588 J 1.2221
G02 X116.6165 Y105.2763 Z-2.0000 I -40.3937 J 2.3536
G02 X116.4849 Y104.0640 Z-2.0000 I -34.7476 J 3.1589
G02 X116.3094 Y102.8573 Z-2.0000 I -32.1294 J 4.0574
G02 X116.1028 Y101.7444 Z-2.0000 I -27.5398 J 4.5368
G02 X115.8495 Y100.6413 Z-2.0000 I -25.3844 J 5.2471
G02 X115.5678 Y99.6272 Z-2.0000 I -21.7310 J 5.4910
G02 X115.2371 Y98.6282 Z-2.0000 I -19.9803 J 6.0596
G02 X114.8799 Y97.7124 Z-2.0000 I -17.1460 J 6.1592
G02 X114.4724 Y96.8182 Z-2.0000 I -15.7366 J 6.6316
G02 X114.0393 Y96.0001 Z-2.0000 I -13.6015 J 6.6777
G02 X113.5558 Y95.2110 Z-2.0000 I -12.4730 J 7.1000
G02 X113.0457 Y94.4902 Z-2.0000 I -10.9153 J 7.1823
G02 X112.4874 Y93.8063 Z-2.0000 I -10.0075 J 7.6010
G02 X111.8994 Y93.1827 Z-2.0000 I -8.9084 J 7.8107
G02 X111.2678 Y92.6074 Z-2.0000 I -8.2344 J 8.4048
G02 X110.5728 Y92.0595 Z-2.0000 I -8.1587 J 9.6366
G02 X109.8416 Y91.5605 Z-2.0000 I -7.8048 J 10.6499
G02 X109.0386 Y91.0861 Z-2.0000 I -7.8517 J 12.3753
G02 X108.2076 Y90.6622 Z-2.0000 I -7.4764 J 13.6293
G02 X107.2968 Y90.2625 Z-2.0000 I -7.5543 J 15.9753
G02 X106.3654 Y89.9129 Z-2.0000 I -7.1138 J 17.5344
G02 X105.3474 Y89.5886 Z-2.0000 I -7.1295 J 20.6236
G02 X104.3151 Y89.3127 Z-2.0000 I -6.5789 J 22.5496
G02 X103.1905 Y89.0645 Z-2.0000 I -6.4430 J 26.5148
G02 X102.0566 Y88.8621 Z-2.0000 I -5.7366 J 28.8674
G02 X100.8260 Y88.6901 Z-2.0000 I -5.3562 J 33.8294
G02 X99.5900 Y88.5612 Z-2.0000 I -4.4502 J 36.6755
G02 X98.2538 Y88.4655 Z-2.0000 I -3.7345 J 42.7623
G02 X96.9153 Y88.4100 Z-2.0000 I -2.5836 J 46.1671
G02 X95.4741 Y88.3906 Z-2.0000 I -1.4412 J 53.5024
G02 X94.0412 Y88.4103 Z-2.0000 I -0.0000 J 52.1966
G02 X92.7094 Y88.4665 Z-2.0000 I 1.2409 J 45.1862
G02 X91.3801 Y88.5635 Z-2.0000 I 2.3896 J 41.9072
G02 X90.1492 Y88.6942 Z-2.0000 I 3.2076 J 36.0620
G02 X88.9238 Y88.8686 Z-2.0000 I 4.1200 J 33.3518
G02 X87.7934 Y89.0738 Z-2.0000 I 4.6059 J 28.5882
G02 X86.6726 Y89.3253 Z-2.0000 I 5.3262 J 26.3531
G02 X85.6421 Y89.6051 Z-2.0000 I 5.5700 J 22.5506
G02 X84.6264 Y89.9337 Z-2.0000 I 6.1439 J 20.7305
G02 X83.6954 Y90.2883 Z-2.0000 I 6.2366 J 17.7718
G02 X82.7853 Y90.6933 Z-2.0000 I 6.7097 J 16.3041
G02 X81.9531 Y91.1233 Z-2.0000 I 6.7402 J 14.0639
G02 X81.1492 Y91.6038 Z-2.0000 I 7.1588 J 12.8891
G02 X80.4153 Y92.1101 Z-2.0000 I 7.2167 J 11.2461
G02 X79.7177 Y92.6651 Z-2.0000 I 7.6273 J 10.3032
G02 X79.0820 Y93.2488 Z-2.0000 I 7.8032 J 9.1374
G02 X78.4897 Y93.8765 Z-2.0000 I 8.4540 J 8.5690
G02 X77.9278 Y94.5635 Z-2.0000 I 9.5661 J 8.3976
G02 X77.4142 Y95.2874 Z-2.0000 I 10.5129 J 8.0036
G02 X76.9276 Y96.0786 Z-2.0000 I 12.0706 J 7.9689
G02 X76.4914 Y96.8988 Z-2.0000 I 13.2348 J 7.5652
G02 X76.0812 Y97.7940 Z-2.0000 I 15.3598 J 7.5782
G02 X75.7215 Y98.7109 Z-2.0000 I 16.7985 J 7.1188
G02 X75.3888 Y99.7098 Z-2.0000 I 19.6055 J 7.0865
G02 X75.1050 Y100.7239 Z-2.0000 I 21.3787 J 6.5275
G02 X74.8502 Y101.8259 Z-2.0000 I 24.9925 J 6.3609
G02 X74.6421 Y102.9379 Z-2.0000 I 27.1566 J 5.6565
G02 X74.4655 Y104.1425 Z-2.0000 I 31.6897 J 5.2628
G02 X74.3329 Y105.3528 Z-2.0000 I 34.3031 J 4.3685
G02 X74.2346 Y106.6593 Z-2.0000 I 39.8741 J 3.6569
G02 X74.1776 Y107.9684 Z-2.0000 I 42.9988 J 2.5283
G02 X74.1577 Y109.3765 Z-2.0000 I 49.7270 J 1.4081
G01 X74.1577 Y134.6919 Z-2.0000
G00 Z5.0000

(End cutting path id: path5770)


(Start cutting path id: path5770)
(Change tool to Cylindrical cutter)

G00 Z5.0000
G00 X74.1577 Y134.6919

G01 Z-4.0000 F 100.0000(Penetrate)
G01 X67.8784 Y134.6919 Z-4.0000 F 400.0000
G01 X67.8784 Y138.6908 Z-4.0000
G01 X93.2599 Y138.6908 Z-4.0000
G01 X93.2599 Y134.6919 Z-4.0000
G01 X86.9476 Y134.6919 Z-4.0000
G01 X86.9476 Y110.0045 Z-4.0000
G03 X86.9960 Y107.7015 Z-4.0000 I 54.7098 J 0.0000
G03 X87.1273 Y105.7391 Z-4.0000 I 39.8528 J 1.6790
G03 X87.3636 Y103.7878 Z-4.0000 I 33.6188 J 3.0821
G03 X87.6664 Y102.1637 Z-4.0000 I 23.5823 J 3.5557
G03 X88.0912 Y100.5694 Z-4.0000 I 19.4264 J 4.3225
G03 X88.5649 Y99.2781 Z-4.0000 I 13.2055 J 4.1120
G03 X89.1749 Y98.0494 Z-4.0000 I 10.6261 J 4.5096
G03 X89.8228 Y97.0824 Z-4.0000 I 7.2115 J 4.1315
G03 X90.6009 Y96.2277 Z-4.0000 I 6.1714 J 4.8371
G03 X91.5165 Y95.4775 Z-4.0000 I 5.6564 J 5.9694
G03 X92.5292 Y94.8611 Z-4.0000 I 5.0601 J 7.1722
G03 X93.7226 Y94.3311 Z-4.0000 I 4.9106 J 9.4496
G03 X94.9716 Y93.9417 Z-4.0000 I 4.2026 J 11.2826
G03 X96.4408 Y93.6433 Z-4.0000 I 3.8778 J 15.3246
G03 X97.9327 Y93.4756 Z-4.0000 I 2.7867 J 18.0763
G03 X99.6713 Y93.4140 Z-4.0000 I 1.7386 J 24.4970
G03 X101.3684 Y93.4761 Z-4.0000 I -0.0000 J 23.2154
G03 X102.8275 Y93.6453 Z-4.0000 I -1.2696 J 17.3210
G03 X104.2630 Y93.9460 Z-4.0000 I -2.3666 J 14.8756
G03 X105.4879 Y94.3394 Z-4.0000 I -2.9251 J 11.2128
G03 X106.6558 Y94.8729 Z-4.0000 I -3.6959 J 9.6359
G03 X107.6526 Y95.4961 Z-4.0000 I -4.0770 J 7.6299
G03 X108.5517 Y96.2511 Z-4.0000 I -4.7999 J 6.6285
G03 X109.3216 Y97.1155 Z-4.0000 I -5.5395 J 5.7090
G03 X109.9702 Y98.0901 Z-4.0000 I -6.7329 J 5.1837
G03 X110.5795 Y99.3215 Z-4.0000 I -10.1658 J 5.7968
G03 X111.0536 Y100.6147 Z-4.0000 I -12.8546 J 5.4465
G03 X111.4780 Y102.2050 Z-4.0000 I -19.0331 J 5.9308
G03 X111.7809 Y103.8250 Z-4.0000 I -23.2392 J 5.1841
G03 X112.0171 Y105.7660 Z-4.0000 I -33.1384 J 5.0169
G03 X112.1484 Y107.7181 Z-4.0000 I -39.3403 J 3.6256
G03 X112.1968 Y110.0045 Z-4.0000 I -53.9272 J 2.2864
G01 X112.1968 Y134.6919 Z-4.0000
G01 X105.9175 Y134.6919 Z-4.0000
G01 X105.9175 Y138.6908 Z-4.0000
G01 X123.1029 Y138.6908 Z-4.0000
G01 X123.1029 Y134.6919 Z-4.0000
G01 X116.7906 Y134.6919 Z-4.0000
G01 X116.7906 Y109.3105 Z-4.0000
G02 X116.7708 Y107.8982 Z-4.0000 I -50.3553 J -0.0000
G02 X116.7142 Y106.5860 Z-4.0000 I -43.5588 J 1.2221
G02 X116.6165 Y105.2763 Z-4.0000 I -40.3937 J 2.3536
G02 X116.4849 Y104.0640 Z-4.0000 I -34.7476 J 3.1589
G02 X116.3094 Y102.8573 Z-4.0000 I -32.1294 J 4.0574
G02 X116.1028 Y101.7444 Z-4.0000 I -27.5398 J 4.5368
G02 X115.8495 Y100.6413 Z-4.0000 I -25.3844 J 5.2471
G02 X115.5678 Y99.6272 Z-4.0000 I -21.7310 J 5.4910
G02 X115.2371 Y98.6282 Z-4.0000 I -19.9803 J 6.0596
G02 X114.8799 Y97.7124 Z-4.0000 I -17.1460 J 6.1592
G02 X114.4724 Y96.8182 Z-4.0000 I -15.7366 J 6.6316
G02 X114.0393 Y96.0001 Z-4.0000 I -13.6015 J 6.6777
G02 X113.5558 Y95.2110 Z-4.0000 I -12.4730 J 7.1000
G02 X113.0457 Y94.4902 Z-4.0000 I -10.9153 J 7.1823
G02 X112.4874 Y93.8063 Z-4.0000 I -10.0075 J 7.6010
G02 X111.8994 Y93.1827 Z-4.0000 I -8.9084 J 7.8107
G02 X111.2678 Y92.6074 Z-4.0000 I -8.2344 J 8.4048
G02 X110.5728 Y92.0595 Z-4.0000 I -8.1587 J 9.6366
G02 X109.8416 Y91.5605 Z-4.0000 I -7.8048 J 10.6499
G02 X109.0386 Y91.0861 Z-4.0000 I -7.8517 J 12.3753
G02 X108.2076 Y90.6622 Z-4.0000 I -7.4764 J 13.6293
G02 X107.2968 Y90.2625 Z-4.0000 I -7.5543 J 15.9753
G02 X106.3654 Y89.9129 Z-4.0000 I -7.1138 J 17.5344
G02 X105.3474 Y89.5886 Z-4.0000 I -7.1295 J 20.6236
G02 X104.3151 Y89.3127 Z-4.0000 I -6.5789 J 22.5496
G02 X103.1905 Y89.0645 Z-4.0000 I -6.4430 J 26.5148
G02 X102.0566 Y88.8621 Z-4.0000 I -5.7366 J 28.8674
G02 X100.8260 Y88.6901 Z-4.0000 I -5.3562 J 33.8294
G02 X99.5900 Y88.5612 Z-4.0000 I -4.4502 J 36.6755
G02 X98.2538 Y88.4655 Z-4.0000 I -3.7345 J 42.7623
G02 X96.9153 Y88.4100 Z-4.0000 I -2.5836 J 46.1671
G02 X95.4741 Y88.3906 Z-4.0000 I -1.4412 J 53.5024
G02 X94.0412 Y88.4103 Z-4.0000 I -0.0000 J 52.1966
G02 X92.7094 Y88.4665 Z-4.0000 I 1.2409 J 45.1862
G02 X91.3801 Y88.5635 Z-4.0000 I 2.3896 J 41.9072
G02 X90.1492 Y88.6942 Z-4.0000 I 3.2076 J 36.0620
G02 X88.9238 Y88.8686 Z-4.0000 I 4.1200 J 33.3518
G02 X87.7934 Y89.0738 Z-4.0000 I 4.6059 J 28.5882
G02 X86.6726 Y89.3253 Z-4.0000 I 5.3262 J 26.3531
G02 X85.6421 Y89.6051 Z-4.0000 I 5.5700 J 22.5506
G02 X84.6264 Y89.9337 Z-4.0000 I 6.1439 J 20.7305
G02 X83.6954 Y90.2883 Z-4.0000 I 6.2366 J 17.7718
G02 X82.7853 Y90.6933 Z-4.0000 I 6.7097 J 16.3041
G02 X81.9531 Y91.1233 Z-4.0000 I 6.7402 J 14.0639
G02 X81.1492 Y91.6038 Z-4.0000 I 7.1588 J 12.8891
G02 X80.4153 Y92.1101 Z-4.0000 I 7.2167 J 11.2461
G02 X79.7177 Y92.6651 Z-4.0000 I 7.6273 J 10.3032
G02 X79.0820 Y93.2488 Z-4.0000 I 7.8032 J 9.1374
G02 X78.4897 Y93.8765 Z-4.0000 I 8.4540 J 8.5690
G02 X77.9278 Y94.5635 Z-4.0000 I 9.5661 J 8.3976
G02 X77.4142 Y95.2874 Z-4.0000 I 10.5129 J 8.0036
G02 X76.9276 Y96.0786 Z-4.0000 I 12.0706 J 7.9689
G02 X76.4914 Y96.8988 Z-4.0000 I 13.2348 J 7.5652
G02 X76.0812 Y97.7940 Z-4.0000 I 15.3598 J 7.5782
G02 X75.7215 Y98.7109 Z-4.0000 I 16.7985 J 7.1188
G02 X75.3888 Y99.7098 Z-4.0000 I 19.6055 J 7.0865
G02 X75.1050 Y100.7239 Z-4.0000 I 21.3787 J 6.5275
G02 X74.8502 Y101.8259 Z-4.0000 I 24.9925 J 6.3609
G02 X74.6421 Y102.9379 Z-4.0000 I 27.1566 J 5.6565
G02 X74.4655 Y104.1425 Z-4.0000 I 31.6897 J 5.2628
G02 X74.3329 Y105.3528 Z-4.0000 I 34.3031 J 4.3685
G02 X74.2346 Y106.6593 Z-4.0000 I 39.8741 J 3.6569
G02 X74.1776 Y107.9684 Z-4.0000 I 42.9988 J 2.5283
G02 X74.1577 Y109.3765 Z-4.0000 I 49.7270 J 1.4081
G01 X74.1577 Y134.6919 Z-4.0000
G00 Z5.0000

(End cutting path id: path5770)


(Start cutting path id: path5770)
(Change tool to Cylindrical cutter)

G00 Z5.0000
G00 X74.1577 Y134.6919

G01 Z-6.0000 F 100.0000(Penetrate)
G01 X67.8784 Y134.6919 Z-6.0000 F 400.0000
G01 X67.8784 Y138.6908 Z-6.0000
G01 X93.2599 Y138.6908 Z-6.0000
G01 X93.2599 Y134.6919 Z-6.0000
G01 X86.9476 Y134.6919 Z-6.0000
G01 X86.9476 Y110.0045 Z-6.0000
G03 X86.9960 Y107.7015 Z-6.0000 I 54.7098 J 0.0000
G03 X87.1273 Y105.7391 Z-6.0000 I 39.8528 J 1.6790
G03 X87.3636 Y103.7878 Z-6.0000 I 33.6188 J 3.0821
G03 X87.6664 Y102.1637 Z-6.0000 I 23.5823 J 3.5557
G03 X88.0912 Y100.5694 Z-6.0000 I 19.4264 J 4.3225
G03 X88.5649 Y99.2781 Z-6.0000 I 13.2055 J 4.1120
G03 X89.1749 Y98.0494 Z-6.0000 I 10.6261 J 4.5096
G03 X89.8228 Y97.0824 Z-6.0000 I 7.2115 J 4.1315
G03 X90.6009 Y96.2277 Z-6.0000 I 6.1714 J 4.8371
G03 X91.5165 Y95.4775 Z-6.0000 I 5.6564 J 5.9694
G03 X92.5292 Y94.8611 Z-6.0000 I 5.0601 J 7.1722
G03 X93.7226 Y94.3311 Z-6.0000 I 4.9106 J 9.4496
G03 X94.9716 Y93.9417 Z-6.0000 I 4.2026 J 11.2826
G03 X96.4408 Y93.6433 Z-6.0000 I 3.8778 J 15.3246
G03 X97.9327 Y93.4756 Z-6.0000 I 2.7867 J 18.0763
G03 X99.6713 Y93.4140 Z-6.0000 I 1.7386 J 24.4970
G03 X101.3684 Y93.4761 Z-6.0000 I -0.0000 J 23.2154
G03 X102.8275 Y93.6453 Z-6.0000 I -1.2696 J 17.3210
G03 X104.2630 Y93.9460 Z-6.0000 I -2.3666 J 14.8756
G03 X105.4879 Y94.3394 Z-6.0000 I -2.9251 J 11.2128
G03 X106.6558 Y94.8729 Z-6.0000 I -3.6959 J 9.6359
G03 X107.6526 Y95.4961 Z-6.0000 I -4.0770 J 7.6299
G03 X108.5517 Y96.2511 Z-6.0000 I -4.7999 J 6.6285
G03 X109.3216 Y97.1155 Z-6.0000 I -5.5395 J 5.7090
G03 X109.9702 Y98.0901 Z-6.0000 I -6.7329 J 5.1837
G03 X110.5795 Y99.3215 Z-6.0000 I -10.1658 J 5.7968
G03 X111.0536 Y100.6147 Z-6.0000 I -12.8546 J 5.4465
G03 X111.4780 Y102.2050 Z-6.0000 I -19.0331 J 5.9308
G03 X111.7809 Y103.8250 Z-6.0000 I -23.2392 J 5.1841
G03 X112.0171 Y105.7660 Z-6.0000 I -33.1384 J 5.0169
G03 X112.1484 Y107.7181 Z-6.0000 I -39.3403 J 3.6256
G03 X112.1968 Y110.0045 Z-6.0000 I -53.9272 J 2.2864
G01 X112.1968 Y134.6919 Z-6.0000
G01 X105.9175 Y134.6919 Z-6.0000
G01 X105.9175 Y138.6908 Z-6.0000
G01 X123.1029 Y138.6908 Z-6.0000
G01 X123.1029 Y134.6919 Z-6.0000
G01 X116.7906 Y134.6919 Z-6.0000
G01 X116.7906 Y109.3105 Z-6.0000
G02 X116.7708 Y107.8982 Z-6.0000 I -50.3553 J -0.0000
G02 X116.7142 Y106.5860 Z-6.0000 I -43.5588 J 1.2221
G02 X116.6165 Y105.2763 Z-6.0000 I -40.3937 J 2.3536
G02 X116.4849 Y104.0640 Z-6.0000 I -34.7476 J 3.1589
G02 X116.3094 Y102.8573 Z-6.0000 I -32.1294 J 4.0574
G02 X116.1028 Y101.7444 Z-6.0000 I -27.5398 J 4.5368
G02 X115.8495 Y100.6413 Z-6.0000 I -25.3844 J 5.2471
G02 X115.5678 Y99.6272 Z-6.0000 I -21.7310 J 5.4910
G02 X115.2371 Y98.6282 Z-6.0000 I -19.9803 J 6.0596
G02 X114.8799 Y97.7124 Z-6.0000 I -17.1460 J 6.1592
G02 X114.4724 Y96.8182 Z-6.0000 I -15.7366 J 6.6316
G02 X114.0393 Y96.0001 Z-6.0000 I -13.6015 J 6.6777
G02 X113.5558 Y95.2110 Z-6.0000 I -12.4730 J 7.1000
G02 X113.0457 Y94.4902 Z-6.0000 I -10.9153 J 7.1823
G02 X112.4874 Y93.8063 Z-6.0000 I -10.0075 J 7.6010
G02 X111.8994 Y93.1827 Z-6.0000 I -8.9084 J 7.8107
G02 X111.2678 Y92.6074 Z-6.0000 I -8.2344 J 8.4048
G02 X110.5728 Y92.0595 Z-6.0000 I -8.1587 J 9.6366
G02 X109.8416 Y91.5605 Z-6.0000 I -7.8048 J 10.6499
G02 X109.0386 Y91.0861 Z-6.0000 I -7.8517 J 12.3753
G02 X108.2076 Y90.6622 Z-6.0000 I -7.4764 J 13.6293
G02 X107.2968 Y90.2625 Z-6.0000 I -7.5543 J 15.9753
G02 X106.3654 Y89.9129 Z-6.0000 I -7.1138 J 17.5344
G02 X105.3474 Y89.5886 Z-6.0000 I -7.1295 J 20.6236
G02 X104.3151 Y89.3127 Z-6.0000 I -6.5789 J 22.5496
G02 X103.1905 Y89.0645 Z-6.0000 I -6.4430 J 26.5148
G02 X102.0566 Y88.8621 Z-6.0000 I -5.7366 J 28.8674
G02 X100.8260 Y88.6901 Z-6.0000 I -5.3562 J 33.8294
G02 X99.5900 Y88.5612 Z-6.0000 I -4.4502 J 36.6755
G02 X98.2538 Y88.4655 Z-6.0000 I -3.7345 J 42.7623
G02 X96.9153 Y88.4100 Z-6.0000 I -2.5836 J 46.1671
G02 X95.4741 Y88.3906 Z-6.0000 I -1.4412 J 53.5024
G02 X94.0412 Y88.4103 Z-6.0000 I -0.0000 J 52.1966
G02 X92.7094 Y88.4665 Z-6.0000 I 1.2409 J 45.1862
G02 X91.3801 Y88.5635 Z-6.0000 I 2.3896 J 41.9072
G02 X90.1492 Y88.6942 Z-6.0000 I 3.2076 J 36.0620
G02 X88.9238 Y88.8686 Z-6.0000 I 4.1200 J 33.3518
G02 X87.7934 Y89.0738 Z-6.0000 I 4.6059 J 28.5882
G02 X86.6726 Y89.3253 Z-6.0000 I 5.3262 J 26.3531
G02 X85.6421 Y89.6051 Z-6.0000 I 5.5700 J 22.5506
G02 X84.6264 Y89.9337 Z-6.0000 I 6.1439 J 20.7305
G02 X83.6954 Y90.2883 Z-6.0000 I 6.2366 J 17.7718
G02 X82.7853 Y90.6933 Z-6.0000 I 6.7097 J 16.3041
G02 X81.9531 Y91.1233 Z-6.0000 I 6.7402 J 14.0639
G02 X81.1492 Y91.6038 Z-6.0000 I 7.1588 J 12.8891
G02 X80.4153 Y92.1101 Z-6.0000 I 7.2167 J 11.2461
G02 X79.7177 Y92.6651 Z-6.0000 I 7.6273 J 10.3032
G02 X79.0820 Y93.2488 Z-6.0000 I 7.8032 J 9.1374
G02 X78.4897 Y93.8765 Z-6.0000 I 8.4540 J 8.5690
G02 X77.9278 Y94.5635 Z-6.0000 I 9.5661 J 8.3976
G02 X77.4142 Y95.2874 Z-6.0000 I 10.5129 J 8.0036
G02 X76.9276 Y96.0786 Z-6.0000 I 12.0706 J 7.9689
G02 X76.4914 Y96.8988 Z-6.0000 I 13.2348 J 7.5652
G02 X76.0812 Y97.7940 Z-6.0000 I 15.3598 J 7.5782
G02 X75.7215 Y98.7109 Z-6.0000 I 16.7985 J 7.1188
G02 X75.3888 Y99.7098 Z-6.0000 I 19.6055 J 7.0865
G02 X75.1050 Y100.7239 Z-6.0000 I 21.3787 J 6.5275
G02 X74.8502 Y101.8259 Z-6.0000 I 24.9925 J 6.3609
G02 X74.6421 Y102.9379 Z-6.0000 I 27.1566 J 5.6565
G02 X74.4655 Y104.1425 Z-6.0000 I 31.6897 J 5.2628
G02 X74.3329 Y105.3528 Z-6.0000 I 34.3031 J 4.3685
G02 X74.2346 Y106.6593 Z-6.0000 I 39.8741 J 3.6569
G02 X74.1776 Y107.9684 Z-6.0000 I 42.9988 J 2.5283
G02 X74.1577 Y109.3765 Z-6.0000 I 49.7270 J 1.4081
G01 X74.1577 Y134.6919 Z-6.0000
G00 Z5.0000

(End cutting path id: path5770)


(Start cutting path id: path5770)
(Change tool to Cylindrical cutter)

G00 Z5.0000
G00 X74.1577 Y134.6919

G01 Z-8.0000 F 100.0000(Penetrate)
G01 X67.8784 Y134.6919 Z-8.0000 F 400.0000
G01 X67.8784 Y138.6908 Z-8.0000
G01 X93.2599 Y138.6908 Z-8.0000
G01 X93.2599 Y134.6919 Z-8.0000
G01 X86.9476 Y134.6919 Z-8.0000
G01 X86.9476 Y110.0045 Z-8.0000
G03 X86.9960 Y107.7015 Z-8.0000 I 54.7098 J 0.0000
G03 X87.1273 Y105.7391 Z-8.0000 I 39.8528 J 1.6790
G03 X87.3636 Y103.7878 Z-8.0000 I 33.6188 J 3.0821
G03 X87.6664 Y102.1637 Z-8.0000 I 23.5823 J 3.5557
G03 X88.0912 Y100.5694 Z-8.0000 I 19.4264 J 4.3225
G03 X88.5649 Y99.2781 Z-8.0000 I 13.2055 J 4.1120
G03 X89.1749 Y98.0494 Z-8.0000 I 10.6261 J 4.5096
G03 X89.8228 Y97.0824 Z-8.0000 I 7.2115 J 4.1315
G03 X90.6009 Y96.2277 Z-8.0000 I 6.1714 J 4.8371
G03 X91.5165 Y95.4775 Z-8.0000 I 5.6564 J 5.9694
G03 X92.5292 Y94.8611 Z-8.0000 I 5.0601 J 7.1722
G03 X93.7226 Y94.3311 Z-8.0000 I 4.9106 J 9.4496
G03 X94.9716 Y93.9417 Z-8.0000 I 4.2026 J 11.2826
G03 X96.4408 Y93.6433 Z-8.0000 I 3.8778 J 15.3246
G03 X97.9327 Y93.4756 Z-8.0000 I 2.7867 J 18.0763
G03 X99.6713 Y93.4140 Z-8.0000 I 1.7386 J 24.4970
G03 X101.3684 Y93.4761 Z-8.0000 I -0.0000 J 23.2154
G03 X102.8275 Y93.6453 Z-8.0000 I -1.2696 J 17.3210
G03 X104.2630 Y93.9460 Z-8.0000 I -2.3666 J 14.8756
G03 X105.4879 Y94.3394 Z-8.0000 I -2.9251 J 11.2128
G03 X106.6558 Y94.8729 Z-8.0000 I -3.6959 J 9.6359
G03 X107.6526 Y95.4961 Z-8.0000 I -4.0770 J 7.6299
G03 X108.5517 Y96.2511 Z-8.0000 I -4.7999 J 6.6285
G03 X109.3216 Y97.1155 Z-8.0000 I -5.5395 J 5.7090
G03 X109.9702 Y98.0901 Z-8.0000 I -6.7329 J 5.1837
G03 X110.5795 Y99.3215 Z-8.0000 I -10.1658 J 5.7968
G03 X111.0536 Y100.6147 Z-8.0000 I -12.8546 J 5.4465
G03 X111.4780 Y102.2050 Z-8.0000 I -19.0331 J 5.9308
G03 X111.7809 Y103.8250 Z-8.0000 I -23.2392 J 5.1841
G03 X112.0171 Y105.7660 Z-8.0000 I -33.1384 J 5.0169
G03 X112.1484 Y107.7181 Z-8.0000 I -39.3403 J 3.6256
G03 X112.1968 Y110.0045 Z-8.0000 I -53.9272 J 2.2864
G01 X112.1968 Y134.6919 Z-8.0000
G01 X105.9175 Y134.6919 Z-8.0000
G01 X105.9175 Y138.6908 Z-8.0000
G01 X123.1029 Y138.6908 Z-8.0000
G01 X123.1029 Y134.6919 Z-8.0000
G01 X116.7906 Y134.6919 Z-8.0000
G01 X116.7906 Y109.3105 Z-8.0000
G02 X116.7708 Y107.8982 Z-8.0000 I -50.3553 J -0.0000
G02 X116.7142 Y106.5860 Z-8.0000 I -43.5588 J 1.2221
G02 X116.6165 Y105.2763 Z-8.0000 I -40.3937 J 2.3536
G02 X116.4849 Y104.0640 Z-8.0000 I -34.7476 J 3.1589
G02 X116.3094 Y102.8573 Z-8.0000 I -32.1294 J 4.0574
G02 X116.1028 Y101.7444 Z-8.0000 I -27.5398 J 4.5368
G02 X115.8495 Y100.6413 Z-8.0000 I -25.3844 J 5.2471
G02 X115.5678 Y99.6272 Z-8.0000 I -21.7310 J 5.4910
G02 X115.2371 Y98.6282 Z-8.0000 I -19.9803 J 6.0596
G02 X114.8799 Y97.7124 Z-8.0000 I -17.1460 J 6.1592
G02 X114.4724 Y96.8182 Z-8.0000 I -15.7366 J 6.6316
G02 X114.0393 Y96.0001 Z-8.0000 I -13.6015 J 6.6777
G02 X113.5558 Y95.2110 Z-8.0000 I -12.4730 J 7.1000
G02 X113.0457 Y94.4902 Z-8.0000 I -10.9153 J 7.1823
G02 X112.4874 Y93.8063 Z-8.0000 I -10.0075 J 7.6010
G02 X111.8994 Y93.1827 Z-8.0000 I -8.9084 J 7.8107
G02 X111.2678 Y92.6074 Z-8.0000 I -8.2344 J 8.4048
G02 X110.5728 Y92.0595 Z-8.0000 I -8.1587 J 9.6366
G02 X109.8416 Y91.5605 Z-8.0000 I -7.8048 J 10.6499
G02 X109.0386 Y91.0861 Z-8.0000 I -7.8517 J 12.3753
G02 X108.2076 Y90.6622 Z-8.0000 I -7.4764 J 13.6293
G02 X107.2968 Y90.2625 Z-8.0000 I -7.5543 J 15.9753
G02 X106.3654 Y89.9129 Z-8.0000 I -7.1138 J 17.5344
G02 X105.3474 Y89.5886 Z-8.0000 I -7.1295 J 20.6236
G02 X104.3151 Y89.3127 Z-8.0000 I -6.5789 J 22.5496
G02 X103.1905 Y89.0645 Z-8.0000 I -6.4430 J 26.5148
G02 X102.0566 Y88.8621 Z-8.0000 I -5.7366 J 28.8674
G02 X100.8260 Y88.6901 Z-8.0000 I -5.3562 J 33.8294
G02 X99.5900 Y88.5612 Z-8.0000 I -4.4502 J 36.6755
G02 X98.2538 Y88.4655 Z-8.0000 I -3.7345 J 42.7623
G02 X96.9153 Y88.4100 Z-8.0000 I -2.5836 J 46.1671
G02 X95.4741 Y88.3906 Z-8.0000 I -1.4412 J 53.5024
G02 X94.0412 Y88.4103 Z-8.0000 I -0.0000 J 52.1966
G02 X92.7094 Y88.4665 Z-8.0000 I 1.2409 J 45.1862
G02 X91.3801 Y88.5635 Z-8.0000 I 2.3896 J 41.9072
G02 X90.1492 Y88.6942 Z-8.0000 I 3.2076 J 36.0620
G02 X88.9238 Y88.8686 Z-8.0000 I 4.1200 J 33.3518
G02 X87.7934 Y89.0738 Z-8.0000 I 4.6059 J 28.5882
G02 X86.6726 Y89.3253 Z-8.0000 I 5.3262 J 26.3531
G02 X85.6421 Y89.6051 Z-8.0000 I 5.5700 J 22.5506
G02 X84.6264 Y89.9337 Z-8.0000 I 6.1439 J 20.7305
G02 X83.6954 Y90.2883 Z-8.0000 I 6.2366 J 17.7718
G02 X82.7853 Y90.6933 Z-8.0000 I 6.7097 J 16.3041
G02 X81.9531 Y91.1233 Z-8.0000 I 6.7402 J 14.0639
G02 X81.1492 Y91.6038 Z-8.0000 I 7.1588 J 12.8891
G02 X80.4153 Y92.1101 Z-8.0000 I 7.2167 J 11.2461
G02 X79.7177 Y92.6651 Z-8.0000 I 7.6273 J 10.3032
G02 X79.0820 Y93.2488 Z-8.0000 I 7.8032 J 9.1374
G02 X78.4897 Y93.8765 Z-8.0000 I 8.4540 J 8.5690
G02 X77.9278 Y94.5635 Z-8.0000 I 9.5661 J 8.3976
G02 X77.4142 Y95.2874 Z-8.0000 I 10.5129 J 8.0036
G02 X76.9276 Y96.0786 Z-8.0000 I 12.0706 J 7.9689
G02 X76.4914 Y96.8988 Z-8.0000 I 13.2348 J 7.5652
G02 X76.0812 Y97.7940 Z-8.0000 I 15.3598 J 7.5782
G02 X75.7215 Y98.7109 Z-8.0000 I 16.7985 J 7.1188
G02 X75.3888 Y99.7098 Z-8.0000 I 19.6055 J 7.0865
G02 X75.1050 Y100.7239 Z-8.0000 I 21.3787 J 6.5275
G02 X74.8502 Y101.8259 Z-8.0000 I 24.9925 J 6.3609
G02 X74.6421 Y102.9379 Z-8.0000 I 27.1566 J 5.6565
G02 X74.4655 Y104.1425 Z-8.0000 I 31.6897 J 5.2628
G02 X74.3329 Y105.3528 Z-8.0000 I 34.3031 J 4.3685
G02 X74.2346 Y106.6593 Z-8.0000 I 39.8741 J 3.6569
G02 X74.1776 Y107.9684 Z-8.0000 I 42.9988 J 2.5283
G02 X74.1577 Y109.3765 Z-8.0000 I 49.7270 J 1.4081
G01 X74.1577 Y134.6919 Z-8.0000
G00 Z5.0000

(End cutting path id: path5770)


(Start cutting path id: path5770)
(Change tool to Cylindrical cutter)

G00 Z5.0000
G00 X74.1577 Y134.6919

G01 Z-10.0000 F 100.0000(Penetrate)
G01 X67.8784 Y134.6919 Z-10.0000 F 400.0000
G01 X67.8784 Y138.6908 Z-10.0000
G01 X93.2599 Y138.6908 Z-10.0000
G01 X93.2599 Y134.6919 Z-10.0000
G01 X86.9476 Y134.6919 Z-10.0000
G01 X86.9476 Y110.0045 Z-10.0000
G03 X86.9960 Y107.7015 Z-10.0000 I 54.7098 J 0.0000
G03 X87.1273 Y105.7391 Z-10.0000 I 39.8528 J 1.6790
G03 X87.3636 Y103.7878 Z-10.0000 I 33.6188 J 3.0821
G03 X87.6664 Y102.1637 Z-10.0000 I 23.5823 J 3.5557
G03 X88.0912 Y100.5694 Z-10.0000 I 19.4264 J 4.3225
G03 X88.5649 Y99.2781 Z-10.0000 I 13.2055 J 4.1120
G03 X89.1749 Y98.0494 Z-10.0000 I 10.6261 J 4.5096
G03 X89.8228 Y97.0824 Z-10.0000 I 7.2115 J 4.1315
G03 X90.6009 Y96.2277 Z-10.0000 I 6.1714 J 4.8371
G03 X91.5165 Y95.4775 Z-10.0000 I 5.6564 J 5.9694
G03 X92.5292 Y94.8611 Z-10.0000 I 5.0601 J 7.1722
G03 X93.7226 Y94.3311 Z-10.0000 I 4.9106 J 9.4496
G03 X94.9716 Y93.9417 Z-10.0000 I 4.2026 J 11.2826
G03 X96.4408 Y93.6433 Z-10.0000 I 3.8778 J 15.3246
G03 X97.9327 Y93.4756 Z-10.0000 I 2.7867 J 18.0763
G03 X99.6713 Y93.4140 Z-10.0000 I 1.7386 J 24.4970
G03 X101.3684 Y93.4761 Z-10.0000 I -0.0000 J 23.2154
G03 X102.8275 Y93.6453 Z-10.0000 I -1.2696 J 17.3210
G03 X104.2630 Y93.9460 Z-10.0000 I -2.3666 J 14.8756
G03 X105.4879 Y94.3394 Z-10.0000 I -2.9251 J 11.2128
G03 X106.6558 Y94.8729 Z-10.0000 I -3.6959 J 9.6359
G03 X107.6526 Y95.4961 Z-10.0000 I -4.0770 J 7.6299
G03 X108.5517 Y96.2511 Z-10.0000 I -4.7999 J 6.6285
G03 X109.3216 Y97.1155 Z-10.0000 I -5.5395 J 5.7090
G03 X109.9702 Y98.0901 Z-10.0000 I -6.7329 J 5.1837
G03 X110.5795 Y99.3215 Z-10.0000 I -10.1658 J 5.7968
G03 X111.0536 Y100.6147 Z-10.0000 I -12.8546 J 5.4465
G03 X111.4780 Y102.2050 Z-10.0000 I -19.0331 J 5.9308
G03 X111.7809 Y103.8250 Z-10.0000 I -23.2392 J 5.1841
G03 X112.0171 Y105.7660 Z-10.0000 I -33.1384 J 5.0169
G03 X112.1484 Y107.7181 Z-10.0000 I -39.3403 J 3.6256
G03 X112.1968 Y110.0045 Z-10.0000 I -53.9272 J 2.2864
G01 X112.1968 Y134.6919 Z-10.0000
G01 X105.9175 Y134.6919 Z-10.0000
G01 X105.9175 Y138.6908 Z-10.0000
G01 X123.1029 Y138.6908 Z-10.0000
G01 X123.1029 Y134.6919 Z-10.0000
G01 X116.7906 Y134.6919 Z-10.0000
G01 X116.7906 Y109.3105 Z-10.0000
G02 X116.7708 Y107.8982 Z-10.0000 I -50.3553 J -0.0000
G02 X116.7142 Y106.5860 Z-10.0000 I -43.5588 J 1.2221
G02 X116.6165 Y105.2763 Z-10.0000 I -40.3937 J 2.3536
G02 X116.4849 Y104.0640 Z-10.0000 I -34.7476 J 3.1589
G02 X116.3094 Y102.8573 Z-10.0000 I -32.1294 J 4.0574
G02 X116.1028 Y101.7444 Z-10.0000 I -27.5398 J 4.5368
G02 X115.8495 Y100.6413 Z-10.0000 I -25.3844 J 5.2471
G02 X115.5678 Y99.6272 Z-10.0000 I -21.7310 J 5.4910
G02 X115.2371 Y98.6282 Z-10.0000 I -19.9803 J 6.0596
G02 X114.8799 Y97.7124 Z-10.0000 I -17.1460 J 6.1592
G02 X114.4724 Y96.8182 Z-10.0000 I -15.7366 J 6.6316
G02 X114.0393 Y96.0001 Z-10.0000 I -13.6015 J 6.6777
G02 X113.5558 Y95.2110 Z-10.0000 I -12.4730 J 7.1000
G02 X113.0457 Y94.4902 Z-10.0000 I -10.9153 J 7.1823
G02 X112.4874 Y93.8063 Z-10.0000 I -10.0075 J 7.6010
G02 X111.8994 Y93.1827 Z-10.0000 I -8.9084 J 7.8107
G02 X111.2678 Y92.6074 Z-10.0000 I -8.2344 J 8.4048
G02 X110.5728 Y92.0595 Z-10.0000 I -8.1587 J 9.6366
G02 X109.8416 Y91.5605 Z-10.0000 I -7.8048 J 10.6499
G02 X109.0386 Y91.0861 Z-10.0000 I -7.8517 J 12.3753
G02 X108.2076 Y90.6622 Z-10.0000 I -7.4764 J 13.6293
G02 X107.2968 Y90.2625 Z-10.0000 I -7.5543 J 15.9753
G02 X106.3654 Y89.9129 Z-10.0000 I -7.1138 J 17.5344
G02 X105.3474 Y89.5886 Z-10.0000 I -7.1295 J 20.6236
G02 X104.3151 Y89.3127 Z-10.0000 I -6.5789 J 22.5496
G02 X103.1905 Y89.0645 Z-10.0000 I -6.4430 J 26.5148
G02 X102.0566 Y88.8621 Z-10.0000 I -5.7366 J 28.8674
G02 X100.8260 Y88.6901 Z-10.0000 I -5.3562 J 33.8294
G02 X99.5900 Y88.5612 Z-10.0000 I -4.4502 J 36.6755
G02 X98.2538 Y88.4655 Z-10.0000 I -3.7345 J 42.7623
G02 X96.9153 Y88.4100 Z-10.0000 I -2.5836 J 46.1671
G02 X95.4741 Y88.3906 Z-10.0000 I -1.4412 J 53.5024
G02 X94.0412 Y88.4103 Z-10.0000 I -0.0000 J 52.1966
G02 X92.7094 Y88.4665 Z-10.0000 I 1.2409 J 45.1862
G02 X91.3801 Y88.5635 Z-10.0000 I 2.3896 J 41.9072
G02 X90.1492 Y88.6942 Z-10.0000 I 3.2076 J 36.0620
G02 X88.9238 Y88.8686 Z-10.0000 I 4.1200 J 33.3518
G02 X87.7934 Y89.0738 Z-10.0000 I 4.6059 J 28.5882
G02 X86.6726 Y89.3253 Z-10.0000 I 5.3262 J 26.3531
G02 X85.6421 Y89.6051 Z-10.0000 I 5.5700 J 22.5506
G02 X84.6264 Y89.9337 Z-10.0000 I 6.1439 J 20.7305
G02 X83.6954 Y90.2883 Z-10.0000 I 6.2366 J 17.7718
G02 X82.7853 Y90.6933 Z-10.0000 I 6.7097 J 16.3041
G02 X81.9531 Y91.1233 Z-10.0000 I 6.7402 J 14.0639
G02 X81.1492 Y91.6038 Z-10.0000 I 7.1588 J 12.8891
G02 X80.4153 Y92.1101 Z-10.0000 I 7.2167 J 11.2461
G02 X79.7177 Y92.6651 Z-10.0000 I 7.6273 J 10.3032
G02 X79.0820 Y93.2488 Z-10.0000 I 7.8032 J 9.1374
G02 X78.4897 Y93.8765 Z-10.0000 I 8.4540 J 8.5690
G02 X77.9278 Y94.5635 Z-10.0000 I 9.5661 J 8.3976
G02 X77.4142 Y95.2874 Z-10.0000 I 10.5129 J 8.0036
G02 X76.9276 Y96.0786 Z-10.0000 I 12.0706 J 7.9689
G02 X76.4914 Y96.8988 Z-10.0000 I 13.2348 J 7.5652
G02 X76.0812 Y97.7940 Z-10.0000 I 15.3598 J 7.5782
G02 X75.7215 Y98.7109 Z-10.0000 I 16.7985 J 7.1188
G02 X75.3888 Y99.7098 Z-10.0000 I 19.6055 J 7.0865
G02 X75.1050 Y100.7239 Z-10.0000 I 21.3787 J 6.5275
G02 X74.8502 Y101.8259 Z-10.0000 I 24.9925 J 6.3609
G02 X74.6421 Y102.9379 Z-10.0000 I 27.1566 J 5.6565
G02 X74.4655 Y104.1425 Z-10.0000 I 31.6897 J 5.2628
G02 X74.3329 Y105.3528 Z-10.0000 I 34.3031 J 4.3685
G02 X74.2346 Y106.6593 Z-10.0000 I 39.8741 J 3.6569
G02 X74.1776 Y107.9684 Z-10.0000 I 42.9988 J 2.5283
G02 X74.1577 Y109.3765 Z-10.0000 I 49.7270 J 1.4081
G01 X74.1577 Y134.6919 Z-10.0000
G00 Z5.0000

(End cutting path id: path5770)


(Start cutting path id: path5768)
(Change tool to Cylindrical cutter)

G00 Z5.0000
G00 X21.8746 Y91.7285

G01 Z-2.0000 F 100.0000(Penetrate)
G01 X21.8746 Y103.4278 Z-2.0000 F 400.0000
G01 X26.0718 Y103.4278 Z-2.0000
G03 X26.3601 Y102.0519 Z-2.0000 I 19.4489 J 3.3573
G03 X26.7141 Y100.8273 Z-2.0000 I 15.7592 J 3.8928
G03 X27.1673 Y99.6367 Z-2.0000 I 14.0722 J 4.6747
G03 X27.6829 Y98.5779 Z-2.0000 I 11.6393 J 5.0127
G03 X28.2972 Y97.5741 Z-2.0000 I 10.4282 J 5.6919
G03 X28.9780 Y96.6796 Z-2.0000 I 8.9541 J 6.1090
G03 X29.7486 Y95.8618 Z-2.0000 I 8.0651 J 6.8272
G03 X30.5994 Y95.1325 Z-2.0000 I 7.2545 J 7.6032
G03 X31.5228 Y94.4971 Z-2.0000 I 6.5110 J 8.4721
G03 X32.5555 Y93.9325 Z-2.0000 I 6.1612 J 10.0424
G03 X33.6388 Y93.4698 Z-2.0000 I 5.4882 J 11.3511
G03 X34.8545 Y93.0753 Z-2.0000 I 5.1863 J 13.9093
G03 X36.0995 Y92.7817 Z-2.0000 I 4.3597 J 15.7054
G03 X37.4963 Y92.5609 Z-2.0000 I 3.8071 J 19.5552
G03 X38.9057 Y92.4347 Z-2.0000 I 2.6794 J 21.9835
G03 X40.4810 Y92.3895 Z-2.0000 I 1.5753 J 27.4258
G03 X41.7599 Y92.4218 Z-2.0000 I -0.0000 J 25.3067
G03 X42.8894 Y92.5114 Z-2.0000 I -1.0033 J 19.8275
G03 X44.0108 Y92.6693 Z-2.0000 I -1.8864 J 17.4567
G03 X44.9922 Y92.8770 Z-2.0000 I -2.3599 J 13.5728
G03 X45.9537 Y93.1596 Z-2.0000 I -2.9674 J 11.8697
G03 X46.7892 Y93.4863 Z-2.0000 I -3.1480 J 9.2838
G03 X47.5885 Y93.8913 Z-2.0000 I -3.6016 J 8.0986
G03 X48.2805 Y94.3394 Z-2.0000 I -3.7254 J 6.5127
G03 X48.9160 Y94.8630 Z-2.0000 I -4.0650 J 5.5808
G03 X49.4517 Y95.4279 Z-2.0000 I -4.2032 J 4.5222
G03 X49.9108 Y96.0562 Z-2.0000 I -4.6184 J 3.8565
G03 X50.2882 Y96.7437 Z-2.0000 I -5.1565 J 3.2785
G03 X50.5766 Y97.4736 Z-2.0000 I -5.7640 J 2.6988
G03 X50.7902 Y98.2866 Z-2.0000 I -6.9436 J 2.2587
G03 X50.9133 Y99.1193 Z-2.0000 I -7.8558 J 1.5868
G03 X50.9575 Y100.0568 Z-2.0000 I -9.9186 J 0.9375
G03 X50.9276 Y100.7978 Z-2.0000 I -9.1919 J 0.0000
G03 X50.8439 Y101.4614 Z-2.0000 I -7.4502 J -0.6026
G03 X50.6985 Y102.1135 Z-2.0000 I -6.7113 J -1.1535
G03 X50.5031 Y102.7007 Z-2.0000 I -5.6338 J -1.5493
G03 X50.2450 Y103.2627 Z-2.0000 I -5.1360 J -2.0177
G03 X49.9350 Y103.7748 Z-2.0000 I -4.5713 J -2.4175
G03 X49.5678 Y104.2474 Z-2.0000 I -4.2347 J -2.9114
G03 X49.1398 Y104.6836 Z-2.0000 I -4.0309 J -3.5270
G03 X48.6631 Y105.0661 Z-2.0000 I -3.3346 J -3.6681
G03 X47.9893 Y105.4954 Z-2.0000 I -4.8836 J -6.9215
G03 X47.2803 Y105.8676 Z-2.0000 I -5.4317 J -9.4843
G03 X46.3554 Y106.2782 Z-2.0000 I -7.5413 J -15.7392
G03 X45.4096 Y106.6401 Z-2.0000 I -8.2152 J -20.0522
G03 X44.2382 Y107.0322 Z-2.0000 I -10.8163 J -30.3745
G03 X43.0535 Y107.3829 Z-2.0000 I -11.5901 J -36.9719
G03 X41.6377 Y107.7572 Z-2.0000 I -14.6141 J -52.4191
G01 X34.2348 Y109.5748 Z-2.0000
G02 X32.4373 Y110.0765 Z-2.0000 I 10.6045 J 41.4712
G02 X30.8845 Y110.5890 Z-2.0000 I 9.5221 J 31.4560
G02 X29.3620 Y111.1834 Z-2.0000 I 9.6610 J 26.9928
G02 X28.0712 Y111.7808 Z-2.0000 I 8.4691 J 19.9911
G02 X26.8268 Y112.4670 Z-2.0000 I 8.4767 J 16.8440
G02 X25.7950 Y113.1503 Z-2.0000 I 7.3721 J 12.2534
G02 X24.8322 Y113.9250 Z-2.0000 I 7.3515 J 10.1213
G02 X24.0558 Y114.6974 Z-2.0000 I 6.5298 J 7.3406
G02 X23.3717 Y115.5599 Z-2.0000 I 7.2583 J 6.4599
G02 X22.7690 Y116.5233 Z-2.0000 I 8.4649 J 5.9657
G02 X22.2721 Y117.5464 Z-2.0000 I 9.5860 J 5.2882
G02 X21.8498 Y118.6963 Z-2.0000 I 11.6967 J 4.9478
G02 X21.5351 Y119.8814 Z-2.0000 I 13.2652 J 4.1571
G02 X21.2983 Y121.2163 Z-2.0000 I 16.6029 J 3.6336
G02 X21.1630 Y122.5663 Z-2.0000 I 18.7714 J 2.5623
G02 X21.1145 Y124.0832 Z-2.0000 I 23.6575 J 1.5169
G02 X21.1944 Y125.9101 Z-2.0000 I 20.9206 J -0.0000
G02 X21.4181 Y127.5472 Z-2.0000 I 17.0167 J -1.4916
G02 X21.8056 Y129.1515 Z-2.0000 I 15.3752 J -2.8646
G02 X22.3290 Y130.6021 Z-2.0000 I 13.0839 J -3.9013
G02 X23.0157 Y131.9817 Z-2.0000 I 12.0091 J -5.1169
G02 X23.8472 Y133.2481 Z-2.0000 I 10.9434 J -6.2790
G02 X24.8239 Y134.4066 Z-2.0000 I 10.2307 J -7.6341
G02 X25.9726 Y135.4851 Z-2.0000 I 10.0063 J -9.5074
G02 X27.2440 Y136.4370 Z-2.0000 I 9.3294 J -11.1351
G02 X28.6620 Y137.2780 Z-2.0000 I 8.6815 J -13.0222
G02 X30.1596 Y137.9701 Z-2.0000 I 7.7043 J -14.7045
G02 X31.8388 Y138.5586 Z-2.0000 I 7.2195 J -17.9091
G02 X33.5648 Y138.9972 Z-2.0000 I 6.0623 J -20.2402
G02 X35.5031 Y139.3270 Z-2.0000 I 5.2852 J -25.2044
G02 X37.4615 Y139.5155 Z-2.0000 I 3.7216 J -28.3918
G02 X39.6548 Y139.5831 Z-2.0000 I 2.1933 J -35.5534
G02 X40.7369 Y139.5719 Z-2.0000 I -0.0000 J -52.0365
G02 X41.8401 Y139.5377 Z-2.0000 I -1.1269 J -54.1765
G02 X42.9425 Y139.4812 Z-2.0000 I -2.2748 J -55.2174
G02 X44.0668 Y139.4013 Z-2.0000 I -3.5213 J -57.5163
G02 X45.1894 Y139.2997 Z-2.0000 I -4.7480 J -58.7021
G02 X46.3348 Y139.1741 Z-2.0000 I -6.1332 J -61.2216
G02 X47.4777 Y139.0273 Z-2.0000 I -7.4462 J -62.5011
G02 X48.6441 Y138.8560 Z-2.0000 I -8.9903 J -65.2675
G02 X49.8155 Y138.6641 Z-2.0000 I -10.4570 J -67.4960
G02 X51.0112 Y138.4471 Z-2.0000 I -12.1866 J -70.5342
G02 X52.2030 Y138.2100 Z-2.0000 I -13.7013 J -71.9948
G02 X53.4196 Y137.9472 Z-2.0000 I -15.6255 J -75.2865
G02 X54.6318 Y137.6650 Z-2.0000 I -17.2545 J -76.8610
G02 X55.8693 Y137.3564 Z-2.0000 I -19.3877 J -80.3980
G02 X57.1020 Y137.0291 Z-2.0000 I -21.1401 J -82.0900
G02 X58.3604 Y136.6748 Z-2.0000 I -23.5040 J -85.8966
G01 X58.3604 Y125.7687 Z-2.0000
G01 X54.1632 Y125.7687 Z-2.0000
G03 X53.8797 Y127.0294 Z-2.0000 I -18.1240 J -3.4129
G03 X53.5415 Y128.1420 Z-2.0000 I -14.4498 J -3.7854
G03 X53.1137 Y129.2224 Z-2.0000 I -12.7773 J -4.4349
G03 X52.6347 Y130.1725 Z-2.0000 I -10.3557 J -4.6248
G03 X52.0660 Y131.0707 Z-2.0000 I -9.1663 J -5.1738
G03 X51.4429 Y131.8600 Z-2.0000 I -7.6944 J -5.4341
G03 X50.7381 Y132.5768 Z-2.0000 I -6.8323 J -6.0132
G03 X49.9660 Y133.2047 Z-2.0000 I -6.0064 J -6.5969
G03 X49.1291 Y133.7531 Z-2.0000 I -5.5360 J -7.5351
G03 X48.1752 Y134.2457 Z-2.0000 I -5.4097 J -9.3060
G03 X47.1776 Y134.6454 Z-2.0000 I -4.8661 J -10.7008
G03 X46.0415 Y134.9893 Z-2.0000 I -4.7205 J -13.5451
G03 X44.8809 Y135.2433 Z-2.0000 I -3.9955 J -15.4827
G03 X43.5649 Y135.4355 Z-2.0000 I -3.5527 J -19.7205
G03 X42.2387 Y135.5449 Z-2.0000 I -2.5112 J -22.3566
G03 X40.7454 Y135.5842 Z-2.0000 I -1.4933 J -28.3098
G03 X39.5240 Y135.5557 Z-2.0000 I -0.0000 J -26.1473
G03 X38.4485 Y135.4768 Z-2.0000 I 0.9516 J -20.3504
G03 X37.3797 Y135.3374 Z-2.0000 I 1.7844 J -17.8437
G03 X36.4491 Y135.1546 Z-2.0000 I 2.2092 J -13.7083
G03 X35.5350 Y134.9047 Z-2.0000 I 2.7644 J -11.9078
G03 X34.7471 Y134.6175 Z-2.0000 I 2.8805 J -9.1291
G03 X33.9901 Y134.2590 Z-2.0000 I 3.2698 J -7.8810
G03 X33.3425 Y133.8657 Z-2.0000 I 3.2953 J -6.1561
G03 X32.7529 Y133.4102 Z-2.0000 I 3.4575 J -5.0845
G03 X32.2581 Y132.9176 Z-2.0000 I 3.5541 J -4.0652
G03 X31.8324 Y132.3647 Z-2.0000 I 3.9148 J -3.4542
G03 X31.4835 Y131.7588 Z-2.0000 I 4.3588 J -2.9136
G03 X31.2165 Y131.1120 Z-2.0000 I 4.8889 J -2.3965
G03 X31.0187 Y130.3894 Z-2.0000 I 5.9111 J -2.0060
G03 X30.9048 Y129.6477 Z-2.0000 I 6.7188 J -1.4115
G03 X30.8638 Y128.8092 Z-2.0000 I 8.5525 J -0.8385
G03 X30.8922 Y128.0431 Z-2.0000 I 10.3419 J 0.0000
G03 X30.9712 Y127.3633 Z-2.0000 I 8.2167 J 0.6104
G03 X31.1093 Y126.6938 Z-2.0000 I 7.3129 J 1.1594
G03 X31.2935 Y126.0992 Z-2.0000 I 5.9481 J 1.5162
G03 X31.5389 Y125.5279 Z-2.0000 I 5.3321 J 1.9526
G03 X31.8305 Y125.0169 Z-2.0000 I 4.5545 J 2.2598
G03 X32.1798 Y124.5438 Z-2.0000 I 4.1367 J 2.6889
G03 X32.5824 Y124.1163 Z-2.0000 I 3.7757 J 3.1522
G03 X33.0368 Y123.7542 Z-2.0000 I 2.7146 J 2.9408
G03 X33.7535 Y123.3149 Z-2.0000 I 4.7318 J 6.9148
G03 X34.5080 Y122.9376 Z-2.0000 I 5.6029 J 10.2624
G03 X35.5485 Y122.4969 Z-2.0000 I 8.7021 J 19.0963
G03 X36.6097 Y122.1060 Z-2.0000 I 9.9473 J 25.3655
G03 X37.9672 Y121.6624 Z-2.0000 I 14.1723 J 41.0786
G03 X39.3377 Y121.2593 Z-2.0000 I 15.8287 J 51.2883
G03 X41.0098 Y120.8114 Z-2.0000 I 21.2259 J 75.8875
G01 X48.4127 Y118.9937 Z-2.0000
G02 X50.1176 Y118.5201 Z-2.0000 I -8.2577 J -33.0307
G02 X51.6123 Y118.0147 Z-2.0000 I -7.9206 J -25.8841
G02 X53.0720 Y117.4182 Z-2.0000 I -8.3930 J -22.6233
G02 X54.3367 Y116.7960 Z-2.0000 I -7.8717 J -17.5979
G02 X55.5487 Y116.0786 Z-2.0000 I -8.1983 J -15.2327
G02 X56.5861 Y115.3377 Z-2.0000 I -7.7106 J -11.8935
G02 X57.5484 Y114.5034 Z-2.0000 I -8.0045 J -10.2047
G02 X58.3604 Y113.6398 Z-2.0000 I -7.7678 J -8.1174
G02 X59.0839 Y112.6946 Z-2.0000 I -8.4058 J -7.1831
G02 X59.7195 Y111.6507 Z-2.0000 I -9.6236 J -6.5756
G02 X60.2454 Y110.5466 Z-2.0000 I -10.7652 J -5.8045
G02 X60.6903 Y109.3187 Z-2.0000 I -12.8780 J -5.3611
G02 X61.0233 Y108.0547 Z-2.0000 I -14.4533 J -4.4839
G02 X61.2728 Y106.6438 Z-2.0000 I -17.7659 J -3.8687
G02 X61.4158 Y105.2172 Z-2.0000 I -19.9170 J -2.7173
G02 X61.4670 Y103.6261 Z-2.0000 I -24.7305 J -1.5911
G02 X61.3819 Y101.7671 Z-2.0000 I -20.3434 J -0.0000
G02 X61.1447 Y100.1146 Z-2.0000 I -16.3020 J 1.4959
G02 X60.7331 Y98.4991 Z-2.0000 I -14.6202 J 2.8653
G02 X60.1781 Y97.0494 Z-2.0000 I -12.3179 J 3.8846
G02 X59.4500 Y95.6798 Z-2.0000 I -11.2429 J 5.0985
G02 X58.5669 Y94.4303 Z-2.0000 I -10.2322 J 6.2942
G02 X57.5332 Y93.3015 Z-2.0000 I -9.5266 J 7.6870
G02 X56.3114 Y92.2573 Z-2.0000 I -9.3637 J 9.7198
G02 X54.9761 Y91.3687 Z-2.0000 I -8.5490 J 11.3987
G02 X53.4299 Y90.5656 Z-2.0000 I -8.5135 J 14.5010
G02 X51.8101 Y89.9180 Z-2.0000 I -7.7096 J 16.9348
G02 X49.9412 Y89.3573 Z-2.0000 I -7.6191 J 21.9977
G02 X48.0321 Y88.9456 Z-2.0000 I -6.4858 J 25.4444
G02 X45.8452 Y88.6323 Z-2.0000 I -5.8554 J 33.0806
G02 X43.6419 Y88.4548 Z-2.0000 I -4.1566 J 37.8356
G02 X41.1420 Y88.3906 Z-2.0000 I -2.4999 J 48.6521
G02 X39.9360 Y88.4035 Z-2.0000 I 0.0000 J 56.2568
G02 X38.7336 Y88.4422 Z-2.0000 I 1.2004 J 55.9806
G02 X37.5322 Y88.5068 Z-2.0000 I 2.3985 J 55.8378
G02 X36.3334 Y88.5971 Z-2.0000 I 3.5947 J 55.6934
G02 X35.1368 Y88.7133 Z-2.0000 I 4.7953 J 55.6254
G02 X33.9415 Y88.8553 Z-2.0000 I 6.0063 J 55.6428
G02 X32.7495 Y89.0230 Z-2.0000 I 7.2160 J 55.6121
G02 X31.5579 Y89.2168 Z-2.0000 I 8.4607 J 55.7920
G02 X30.3705 Y89.4358 Z-2.0000 I 9.8308 J 56.6257
G02 X29.1680 Y89.6836 Z-2.0000 I 11.3961 J 58.3419
G02 X27.9708 Y89.9560 Z-2.0000 I 12.8213 J 59.1199
G02 X26.7575 Y90.2578 Z-2.0000 I 14.5335 J 61.0096
G02 X25.5504 Y90.5836 Z-2.0000 I 16.0451 J 61.8586
G02 X24.3264 Y90.9395 Z-2.0000 I 17.9372 J 63.9759
G02 X23.1093 Y91.3186 Z-2.0000 I 19.5468 J 64.8994
G02 X21.8746 Y91.7285 Z-2.0000 I 21.6240 J 67.1930
G01 X21.8746 Y91.7285 Z-2.0000
G00 Z5.0000

(End cutting path id: path5768)


(Start cutting path id: path5768)
(Change tool to Cylindrical cutter)

G00 Z5.0000
G00 X21.8746 Y91.7285

G01 Z-4.0000 F 100.0000(Penetrate)
G01 X21.8746 Y103.4278 Z-4.0000 F 400.0000
G01 X26.0718 Y103.4278 Z-4.0000
G03 X26.3601 Y102.0519 Z-4.0000 I 19.4489 J 3.3573
G03 X26.7141 Y100.8273 Z-4.0000 I 15.7592 J 3.8928
G03 X27.1673 Y99.6367 Z-4.0000 I 14.0722 J 4.6747
G03 X27.6829 Y98.5779 Z-4.0000 I 11.6393 J 5.0127
G03 X28.2972 Y97.5741 Z-4.0000 I 10.4282 J 5.6919
G03 X28.9780 Y96.6796 Z-4.0000 I 8.9541 J 6.1090
G03 X29.7486 Y95.8618 Z-4.0000 I 8.0651 J 6.8272
G03 X30.5994 Y95.1325 Z-4.0000 I 7.2545 J 7.6032
G03 X31.5228 Y94.4971 Z-4.0000 I 6.5110 J 8.4721
G03 X32.5555 Y93.9325 Z-4.0000 I 6.1612 J 10.0424
G03 X33.6388 Y93.4698 Z-4.0000 I 5.4882 J 11.3511
G03 X34.8545 Y93.0753 Z-4.0000 I 5.1863 J 13.9093
G03 X36.0995 Y92.7817 Z-4.0000 I 4.3597 J 15.7054
G03 X37.4963 Y92.5609 Z-4.0000 I 3.8071 J 19.5552
G03 X38.9057 Y92.4347 Z-4.0000 I 2.6794 J 21.9835
G03 X40.4810 Y92.3895 Z-4.0000 I 1.5753 J 27.4258
G03 X41.7599 Y92.4218 Z-4.0000 I -0.0000 J 25.3067
G03 X42.8894 Y92.5114 Z-4.0000 I -1.0033 J 19.8275
G03 X44.0108 Y92.6693 Z-4.0000 I -1.8864 J 17.4567
G03 X44.9922 Y92.8770 Z-4.0000 I -2.3599 J 13.5728
G03 X45.9537 Y93.1596 Z-4.0000 I -2.9674 J 11.8697
G03 X46.7892 Y93.4863 Z-4.0000 I -3.1480 J 9.2838
G03 X47.5885 Y93.8913 Z-4.0000 I -3.6016 J 8.0986
G03 X48.2805 Y94.3394 Z-4.0000 I -3.7254 J 6.5127
G03 X48.9160 Y94.8630 Z-4.0000 I -4.0650 J 5.5808
G03 X49.4517 Y95.4279 Z-4.0000 I -4.2032 J 4.5222
G03 X49.9108 Y96.0562 Z-4.0000 I -4.6184 J 3.8565
G03 X50.2882 Y96.7437 Z-4.0000 I -5.1565 J 3.2785
G03 X50.5766 Y97.4736 Z-4.0000 I -5.7640 J 2.6988
G03 X50.7902 Y98.2866 Z-4.0000 I -6.9436 J 2.2587
G03 X50.9133 Y99.1193 Z-4.0000 I -7.8558 J 1.5868
G03 X50.9575 Y100.0568 Z-4.0000 I -9.9186 J 0.9375
G03 X50.9276 Y100.7978 Z-4.0000 I -9.1919 J 0.0000
G03 X50.8439 Y101.4614 Z-4.0000 I -7.4502 J -0.6026
G03 X50.6985 Y102.1135 Z-4.0000 I -6.7113 J -1.1535
G03 X50.5031 Y102.7007 Z-4.0000 I -5.6338 J -1.5493
G03 X50.2450 Y103.2627 Z-4.0000 I -5.1360 J -2.0177
G03 X49.9350 Y103.7748 Z-4.0000 I -4.5713 J -2.4175
G03 X49.5678 Y104.2474 Z-4.0000 I -4.2347 J -2.9114
G03 X49.1398 Y104.6836 Z-4.0000 I -4.0309 J -3.5270
G03 X48.6631 Y105.0661 Z-4.0000 I -3.3346 J -3.6681
G03 X47.9893 Y105.4954 Z-4.0000 I -4.8836 J -6.9215
G03 X47.2803 Y105.8676 Z-4.0000 I -5.4317 J -9.4843
G03 X46.3554 Y106.2782 Z-4.0000 I -7.5413 J -15.7392
G03 X45.4096 Y106.6401 Z-4.0000 I -8.2152 J -20.0522
G03 X44.2382 Y107.0322 Z-4.0000 I -10.8163 J -30.3745
G03 X43.0535 Y107.3829 Z-4.0000 I -11.5901 J -36.9719
G03 X41.6377 Y107.7572 Z-4.0000 I -14.6141 J -52.4191
G01 X34.2348 Y109.5748 Z-4.0000
G02 X32.4373 Y110.0765 Z-4.0000 I 10.6045 J 41.4712
G02 X30.8845 Y110.5890 Z-4.0000 I 9.5221 J 31.4560
G02 X29.3620 Y111.1834 Z-4.0000 I 9.6610 J 26.9928
G02 X28.0712 Y111.7808 Z-4.0000 I 8.4691 J 19.9911
G02 X26.8268 Y112.4670 Z-4.0000 I 8.4767 J 16.8440
G02 X25.7950 Y113.1503 Z-4.0000 I 7.3721 J 12.2534
G02 X24.8322 Y113.9250 Z-4.0000 I 7.3515 J 10.1213
G02 X24.0558 Y114.6974 Z-4.0000 I 6.5298 J 7.3406
G02 X23.3717 Y115.5599 Z-4.0000 I 7.2583 J 6.4599
G02 X22.7690 Y116.5233 Z-4.0000 I 8.4649 J 5.9657
G02 X22.2721 Y117.5464 Z-4.0000 I 9.5860 J 5.2882
G02 X21.8498 Y118.6963 Z-4.0000 I 11.6967 J 4.9478
G02 X21.5351 Y119.8814 Z-4.0000 I 13.2652 J 4.1571
G02 X21.2983 Y121.2163 Z-4.0000 I 16.6029 J 3.6336
G02 X21.1630 Y122.5663 Z-4.0000 I 18.7714 J 2.5623
G02 X21.1145 Y124.0832 Z-4.0000 I 23.6575 J 1.5169
G02 X21.1944 Y125.9101 Z-4.0000 I 20.9206 J -0.0000
G02 X21.4181 Y127.5472 Z-4.0000 I 17.0167 J -1.4916
G02 X21.8056 Y129.1515 Z-4.0000 I 15.3752 J -2.8646
G02 X22.3290 Y130.6021 Z-4.0000 I 13.0839 J -3.9013
G02 X23.0157 Y131.9817 Z-4.0000 I 12.0091 J -5.1169
G02 X23.8472 Y133.2481 Z-4.0000 I 10.9434 J -6.2790
G02 X24.8239 Y134.4066 Z-4.0000 I 10.2307 J -7.6341
G02 X25.9726 Y135.4851 Z-4.0000 I 10.0063 J -9.5074
G02 X27.2440 Y136.4370 Z-4.0000 I 9.3294 J -11.1351
G02 X28.6620 Y137.2780 Z-4.0000 I 8.6815 J -13.0222
G02 X30.1596 Y137.9701 Z-4.0000 I 7.7043 J -14.7045
G02 X31.8388 Y138.5586 Z-4.0000 I 7.2195 J -17.9091
G02 X33.5648 Y138.9972 Z-4.0000 I 6.0623 J -20.2402
G02 X35.5031 Y139.3270 Z-4.0000 I 5.2852 J -25.2044
G02 X37.4615 Y139.5155 Z-4.0000 I 3.7216 J -28.3918
G02 X39.6548 Y139.5831 Z-4.0000 I 2.1933 J -35.5534
G02 X40.7369 Y139.5719 Z-4.0000 I -0.0000 J -52.0365
G02 X41.8401 Y139.5377 Z-4.0000 I -1.1269 J -54.1765
G02 X42.9425 Y139.4812 Z-4.0000 I -2.2748 J -55.2174
G02 X44.0668 Y139.4013 Z-4.0000 I -3.5213 J -57.5163
G02 X45.1894 Y139.2997 Z-4.0000 I -4.7480 J -58.7021
G02 X46.3348 Y139.1741 Z-4.0000 I -6.1332 J -61.2216
G02 X47.4777 Y139.0273 Z-4.0000 I -7.4462 J -62.5011
G02 X48.6441 Y138.8560 Z-4.0000 I -8.9903 J -65.2675
G02 X49.8155 Y138.6641 Z-4.0000 I -10.4570 J -67.4960
G02 X51.0112 Y138.4471 Z-4.0000 I -12.1866 J -70.5342
G02 X52.2030 Y138.2100 Z-4.0000 I -13.7013 J -71.9948
G02 X53.4196 Y137.9472 Z-4.0000 I -15.6255 J -75.2865
G02 X54.6318 Y137.6650 Z-4.0000 I -17.2545 J -76.8610
G02 X55.8693 Y137.3564 Z-4.0000 I -19.3877 J -80.3980
G02 X57.1020 Y137.0291 Z-4.0000 I -21.1401 J -82.0900
G02 X58.3604 Y136.6748 Z-4.0000 I -23.5040 J -85.8966
G01 X58.3604 Y125.7687 Z-4.0000
G01 X54.1632 Y125.7687 Z-4.0000
G03 X53.8797 Y127.0294 Z-4.0000 I -18.1240 J -3.4129
G03 X53.5415 Y128.1420 Z-4.0000 I -14.4498 J -3.7854
G03 X53.1137 Y129.2224 Z-4.0000 I -12.7773 J -4.4349
G03 X52.6347 Y130.1725 Z-4.0000 I -10.3557 J -4.6248
G03 X52.0660 Y131.0707 Z-4.0000 I -9.1663 J -5.1738
G03 X51.4429 Y131.8600 Z-4.0000 I -7.6944 J -5.4341
G03 X50.7381 Y132.5768 Z-4.0000 I -6.8323 J -6.0132
G03 X49.9660 Y133.2047 Z-4.0000 I -6.0064 J -6.5969
G03 X49.1291 Y133.7531 Z-4.0000 I -5.5360 J -7.5351
G03 X48.1752 Y134.2457 Z-4.0000 I -5.4097 J -9.3060
G03 X47.1776 Y134.6454 Z-4.0000 I -4.8661 J -10.7008
G03 X46.0415 Y134.9893 Z-4.0000 I -4.7205 J -13.5451
G03 X44.8809 Y135.2433 Z-4.0000 I -3.9955 J -15.4827
G03 X43.5649 Y135.4355 Z-4.0000 I -3.5527 J -19.7205
G03 X42.2387 Y135.5449 Z-4.0000 I -2.5112 J -22.3566
G03 X40.7454 Y135.5842 Z-4.0000 I -1.4933 J -28.3098
G03 X39.5240 Y135.5557 Z-4.0000 I -0.0000 J -26.1473
G03 X38.4485 Y135.4768 Z-4.0000 I 0.9516 J -20.3504
G03 X37.3797 Y135.3374 Z-4.0000 I 1.7844 J -17.8437
G03 X36.4491 Y135.1546 Z-4.0000 I 2.2092 J -13.7083
G03 X35.5350 Y134.9047 Z-4.0000 I 2.7644 J -11.9078
G03 X34.7471 Y134.6175 Z-4.0000 I 2.8805 J -9.1291
G03 X33.9901 Y134.2590 Z-4.0000 I 3.2698 J -7.8810
G03 X33.3425 Y133.8657 Z-4.0000 I 3.2953 J -6.1561
G03 X32.7529 Y133.4102 Z-4.0000 I 3.4575 J -5.0845
G03 X32.2581 Y132.9176 Z-4.0000 I 3.5541 J -4.0652
G03 X31.8324 Y132.3647 Z-4.0000 I 3.9148 J -3.4542
G03 X31.4835 Y131.7588 Z-4.0000 I 4.3588 J -2.9136
G03 X31.2165 Y131.1120 Z-4.0000 I 4.8889 J -2.3965
G03 X31.0187 Y130.3894 Z-4.0000 I 5.9111 J -2.0060
G03 X30.9048 Y129.6477 Z-4.0000 I 6.7188 J -1.4115
G03 X30.8638 Y128.8092 Z-4.0000 I 8.5525 J -0.8385
G03 X30.8922 Y128.0431 Z-4.0000 I 10.3419 J 0.0000
G03 X30.9712 Y127.3633 Z-4.0000 I 8.2167 J 0.6104
G03 X31.1093 Y126.6938 Z-4.0000 I 7.3129 J 1.1594
G03 X31.2935 Y126.0992 Z-4.0000 I 5.9481 J 1.5162
G03 X31.5389 Y125.5279 Z-4.0000 I 5.3321 J 1.9526
G03 X31.8305 Y125.0169 Z-4.0000 I 4.5545 J 2.2598
G03 X32.1798 Y124.5438 Z-4.0000 I 4.1367 J 2.6889
G03 X32.5824 Y124.1163 Z-4.0000 I 3.7757 J 3.1522
G03 X33.0368 Y123.7542 Z-4.0000 I 2.7146 J 2.9408
G03 X33.7535 Y123.3149 Z-4.0000 I 4.7318 J 6.9148
G03 X34.5080 Y122.9376 Z-4.0000 I 5.6029 J 10.2624
G03 X35.5485 Y122.4969 Z-4.0000 I 8.7021 J 19.0963
G03 X36.6097 Y122.1060 Z-4.0000 I 9.9473 J 25.3655
G03 X37.9672 Y121.6624 Z-4.0000 I 14.1723 J 41.0786
G03 X39.3377 Y121.2593 Z-4.0000 I 15.8287 J 51.2883
G03 X41.0098 Y120.8114 Z-4.0000 I 21.2259 J 75.8875
G01 X48.4127 Y118.9937 Z-4.0000
G02 X50.1176 Y118.5201 Z-4.0000 I -8.2577 J -33.0307
G02 X51.6123 Y118.0147 Z-4.0000 I -7.9206 J -25.8841
G02 X53.0720 Y117.4182 Z-4.0000 I -8.3930 J -22.6233
G02 X54.3367 Y116.7960 Z-4.0000 I -7.8717 J -17.5979
G02 X55.5487 Y116.0786 Z-4.0000 I -8.1983 J -15.2327
G02 X56.5861 Y115.3377 Z-4.0000 I -7.7106 J -11.8935
G02 X57.5484 Y114.5034 Z-4.0000 I -8.0045 J -10.2047
G02 X58.3604 Y113.6398 Z-4.0000 I -7.7678 J -8.1174
G02 X59.0839 Y112.6946 Z-4.0000 I -8.4058 J -7.1831
G02 X59.7195 Y111.6507 Z-4.0000 I -9.6236 J -6.5756
G02 X60.2454 Y110.5466 Z-4.0000 I -10.7652 J -5.8045
G02 X60.6903 Y109.3187 Z-4.0000 I -12.8780 J -5.3611
G02 X61.0233 Y108.0547 Z-4.0000 I -14.4533 J -4.4839
G02 X61.2728 Y106.6438 Z-4.0000 I -17.7659 J -3.8687
G02 X61.4158 Y105.2172 Z-4.0000 I -19.9170 J -2.7173
G02 X61.4670 Y103.6261 Z-4.0000 I -24.7305 J -1.5911
G02 X61.3819 Y101.7671 Z-4.0000 I -20.3434 J -0.0000
G02 X61.1447 Y100.1146 Z-4.0000 I -16.3020 J 1.4959
G02 X60.7331 Y98.4991 Z-4.0000 I -14.6202 J 2.8653
G02 X60.1781 Y97.0494 Z-4.0000 I -12.3179 J 3.8846
G02 X59.4500 Y95.6798 Z-4.0000 I -11.2429 J 5.0985
G02 X58.5669 Y94.4303 Z-4.0000 I -10.2322 J 6.2942
G02 X57.5332 Y93.3015 Z-4.0000 I -9.5266 J 7.6870
G02 X56.3114 Y92.2573 Z-4.0000 I -9.3637 J 9.7198
G02 X54.9761 Y91.3687 Z-4.0000 I -8.5490 J 11.3987
G02 X53.4299 Y90.5656 Z-4.0000 I -8.5135 J 14.5010
G02 X51.8101 Y89.9180 Z-4.0000 I -7.7096 J 16.9348
G02 X49.9412 Y89.3573 Z-4.0000 I -7.6191 J 21.9977
G02 X48.0321 Y88.9456 Z-4.0000 I -6.4858 J 25.4444
G02 X45.8452 Y88.6323 Z-4.0000 I -5.8554 J 33.0806
G02 X43.6419 Y88.4548 Z-4.0000 I -4.1566 J 37.8356
G02 X41.1420 Y88.3906 Z-4.0000 I -2.4999 J 48.6521
G02 X39.9360 Y88.4035 Z-4.0000 I 0.0000 J 56.2568
G02 X38.7336 Y88.4422 Z-4.0000 I 1.2004 J 55.9806
G02 X37.5322 Y88.5068 Z-4.0000 I 2.3985 J 55.8378
G02 X36.3334 Y88.5971 Z-4.0000 I 3.5947 J 55.6934
G02 X35.1368 Y88.7133 Z-4.0000 I 4.7953 J 55.6254
G02 X33.9415 Y88.8553 Z-4.0000 I 6.0063 J 55.6428
G02 X32.7495 Y89.0230 Z-4.0000 I 7.2160 J 55.6121
G02 X31.5579 Y89.2168 Z-4.0000 I 8.4607 J 55.7920
G02 X30.3705 Y89.4358 Z-4.0000 I 9.8308 J 56.6257
G02 X29.1680 Y89.6836 Z-4.0000 I 11.3961 J 58.3419
G02 X27.9708 Y89.9560 Z-4.0000 I 12.8213 J 59.1199
G02 X26.7575 Y90.2578 Z-4.0000 I 14.5335 J 61.0096
G02 X25.5504 Y90.5836 Z-4.0000 I 16.0451 J 61.8586
G02 X24.3264 Y90.9395 Z-4.0000 I 17.9372 J 63.9759
G02 X23.1093 Y91.3186 Z-4.0000 I 19.5468 J 64.8994
G02 X21.8746 Y91.7285 Z-4.0000 I 21.6240 J 67.1930
G01 X21.8746 Y91.7285 Z-4.0000
G00 Z5.0000

(End cutting path id: path5768)


(Start cutting path id: path5768)
(Change tool to Cylindrical cutter)

G00 Z5.0000
G00 X21.8746 Y91.7285

G01 Z-6.0000 F 100.0000(Penetrate)
G01 X21.8746 Y103.4278 Z-6.0000 F 400.0000
G01 X26.0718 Y103.4278 Z-6.0000
G03 X26.3601 Y102.0519 Z-6.0000 I 19.4489 J 3.3573
G03 X26.7141 Y100.8273 Z-6.0000 I 15.7592 J 3.8928
G03 X27.1673 Y99.6367 Z-6.0000 I 14.0722 J 4.6747
G03 X27.6829 Y98.5779 Z-6.0000 I 11.6393 J 5.0127
G03 X28.2972 Y97.5741 Z-6.0000 I 10.4282 J 5.6919
G03 X28.9780 Y96.6796 Z-6.0000 I 8.9541 J 6.1090
G03 X29.7486 Y95.8618 Z-6.0000 I 8.0651 J 6.8272
G03 X30.5994 Y95.1325 Z-6.0000 I 7.2545 J 7.6032
G03 X31.5228 Y94.4971 Z-6.0000 I 6.5110 J 8.4721
G03 X32.5555 Y93.9325 Z-6.0000 I 6.1612 J 10.0424
G03 X33.6388 Y93.4698 Z-6.0000 I 5.4882 J 11.3511
G03 X34.8545 Y93.0753 Z-6.0000 I 5.1863 J 13.9093
G03 X36.0995 Y92.7817 Z-6.0000 I 4.3597 J 15.7054
G03 X37.4963 Y92.5609 Z-6.0000 I 3.8071 J 19.5552
G03 X38.9057 Y92.4347 Z-6.0000 I 2.6794 J 21.9835
G03 X40.4810 Y92.3895 Z-6.0000 I 1.5753 J 27.4258
G03 X41.7599 Y92.4218 Z-6.0000 I -0.0000 J 25.3067
G03 X42.8894 Y92.5114 Z-6.0000 I -1.0033 J 19.8275
G03 X44.0108 Y92.6693 Z-6.0000 I -1.8864 J 17.4567
G03 X44.9922 Y92.8770 Z-6.0000 I -2.3599 J 13.5728
G03 X45.9537 Y93.1596 Z-6.0000 I -2.9674 J 11.8697
G03 X46.7892 Y93.4863 Z-6.0000 I -3.1480 J 9.2838
G03 X47.5885 Y93.8913 Z-6.0000 I -3.6016 J 8.0986
G03 X48.2805 Y94.3394 Z-6.0000 I -3.7254 J 6.5127
G03 X48.9160 Y94.8630 Z-6.0000 I -4.0650 J 5.5808
G03 X49.4517 Y95.4279 Z-6.0000 I -4.2032 J 4.5222
G03 X49.9108 Y96.0562 Z-6.0000 I -4.6184 J 3.8565
G03 X50.2882 Y96.7437 Z-6.0000 I -5.1565 J 3.2785
G03 X50.5766 Y97.4736 Z-6.0000 I -5.7640 J 2.6988
G03 X50.7902 Y98.2866 Z-6.0000 I -6.9436 J 2.2587
G03 X50.9133 Y99.1193 Z-6.0000 I -7.8558 J 1.5868
G03 X50.9575 Y100.0568 Z-6.0000 I -9.9186 J 0.9375
G03 X50.9276 Y100.7978 Z-6.0000 I -9.1919 J 0.0000
G03 X50.8439 Y101.4614 Z-6.0000 I -7.4502 J -0.6026
G03 X50.6985 Y102.1135 Z-6.0000 I -6.7113 J -1.1535
G03 X50.5031 Y102.7007 Z-6.0000 I -5.6338 J -1.5493
G03 X50.2450 Y103.2627 Z-6.0000 I -5.1360 J -2.0177
G03 X49.9350 Y103.7748 Z-6.0000 I -4.5713 J -2.4175
G03 X49.5678 Y104.2474 Z-6.0000 I -4.2347 J -2.9114
G03 X49.1398 Y104.6836 Z-6.0000 I -4.0309 J -3.5270
G03 X48.6631 Y105.0661 Z-6.0000 I -3.3346 J -3.6681
G03 X47.9893 Y105.4954 Z-6.0000 I -4.8836 J -6.9215
G03 X47.2803 Y105.8676 Z-6.0000 I -5.4317 J -9.4843
G03 X46.3554 Y106.2782 Z-6.0000 I -7.5413 J -15.7392
G03 X45.4096 Y106.6401 Z-6.0000 I -8.2152 J -20.0522
G03 X44.2382 Y107.0322 Z-6.0000 I -10.8163 J -30.3745
G03 X43.0535 Y107.3829 Z-6.0000 I -11.5901 J -36.9719
G03 X41.6377 Y107.7572 Z-6.0000 I -14.6141 J -52.4191
G01 X34.2348 Y109.5748 Z-6.0000
G02 X32.4373 Y110.0765 Z-6.0000 I 10.6045 J 41.4712
G02 X30.8845 Y110.5890 Z-6.0000 I 9.5221 J 31.4560
G02 X29.3620 Y111.1834 Z-6.0000 I 9.6610 J 26.9928
G02 X28.0712 Y111.7808 Z-6.0000 I 8.4691 J 19.9911
G02 X26.8268 Y112.4670 Z-6.0000 I 8.4767 J 16.8440
G02 X25.7950 Y113.1503 Z-6.0000 I 7.3721 J 12.2534
G02 X24.8322 Y113.9250 Z-6.0000 I 7.3515 J 10.1213
G02 X24.0558 Y114.6974 Z-6.0000 I 6.5298 J 7.3406
G02 X23.3717 Y115.5599 Z-6.0000 I 7.2583 J 6.4599
G02 X22.7690 Y116.5233 Z-6.0000 I 8.4649 J 5.9657
G02 X22.2721 Y117.5464 Z-6.0000 I 9.5860 J 5.2882
G02 X21.8498 Y118.6963 Z-6.0000 I 11.6967 J 4.9478
G02 X21.5351 Y119.8814 Z-6.0000 I 13.2652 J 4.1571
G02 X21.2983 Y121.2163 Z-6.0000 I 16.6029 J 3.6336
G02 X21.1630 Y122.5663 Z-6.0000 I 18.7714 J 2.5623
G02 X21.1145 Y124.0832 Z-6.0000 I 23.6575 J 1.5169
G02 X21.1944 Y125.9101 Z-6.0000 I 20.9206 J -0.0000
G02 X21.4181 Y127.5472 Z-6.0000 I 17.0167 J -1.4916
G02 X21.8056 Y129.1515 Z-6.0000 I 15.3752 J -2.8646
G02 X22.3290 Y130.6021 Z-6.0000 I 13.0839 J -3.9013
G02 X23.0157 Y131.9817 Z-6.0000 I 12.0091 J -5.1169
G02 X23.8472 Y133.2481 Z-6.0000 I 10.9434 J -6.2790
G02 X24.8239 Y134.4066 Z-6.0000 I 10.2307 J -7.6341
G02 X25.9726 Y135.4851 Z-6.0000 I 10.0063 J -9.5074
G02 X27.2440 Y136.4370 Z-6.0000 I 9.3294 J -11.1351
G02 X28.6620 Y137.2780 Z-6.0000 I 8.6815 J -13.0222
G02 X30.1596 Y137.9701 Z-6.0000 I 7.7043 J -14.7045
G02 X31.8388 Y138.5586 Z-6.0000 I 7.2195 J -17.9091
G02 X33.5648 Y138.9972 Z-6.0000 I 6.0623 J -20.2402
G02 X35.5031 Y139.3270 Z-6.0000 I 5.2852 J -25.2044
G02 X37.4615 Y139.5155 Z-6.0000 I 3.7216 J -28.3918
G02 X39.6548 Y139.5831 Z-6.0000 I 2.1933 J -35.5534
G02 X40.7369 Y139.5719 Z-6.0000 I -0.0000 J -52.0365
G02 X41.8401 Y139.5377 Z-6.0000 I -1.1269 J -54.1765
G02 X42.9425 Y139.4812 Z-6.0000 I -2.2748 J -55.2174
G02 X44.0668 Y139.4013 Z-6.0000 I -3.5213 J -57.5163
G02 X45.1894 Y139.2997 Z-6.0000 I -4.7480 J -58.7021
G02 X46.3348 Y139.1741 Z-6.0000 I -6.1332 J -61.2216
G02 X47.4777 Y139.0273 Z-6.0000 I -7.4462 J -62.5011
G02 X48.6441 Y138.8560 Z-6.0000 I -8.9903 J -65.2675
G02 X49.8155 Y138.6641 Z-6.0000 I -10.4570 J -67.4960
G02 X51.0112 Y138.4471 Z-6.0000 I -12.1866 J -70.5342
G02 X52.2030 Y138.2100 Z-6.0000 I -13.7013 J -71.9948
G02 X53.4196 Y137.9472 Z-6.0000 I -15.6255 J -75.2865
G02 X54.6318 Y137.6650 Z-6.0000 I -17.2545 J -76.8610
